MingxuanLei/master_arm_linux/trajectory/teach_record_20260617_200911.csv
time_s,loop_count,master_q1,master_q2,master_q3,master_q4,master_q5,master_q6,slave_target_q1,slave_target_q2,slave_target_q3,slave_target_q4,slave_target_q5,slave_target_q6,slave_actual_q1,slave_actual_q2,slave_actual_q3,slave_actual_q4,slave_actual_q5,slave_actual_q6,slave_actual_v1,slave_actual_v2,slave_actual_v3,slave_actual_v4,slave_actual_v5,slave_actual_v6,master_tool,slave_tool_target,slave_tool_actual,slave_tool_actual_vel
0.00901151,5,3.09228705,3.01400613,-2.14545449,-0.02212524,-1.59310245,-0.35667419,-3.12338458,2.80245400,-1.59553871,-0.00190735,-1.58633512,-2.41241455,-3.12261517,2.78245400,-1.57553871,-0.00190735,-1.58966922,-2.41241455,-0.00488281,-0.00488281,0.00488281,-0.01464844,-0.00000000,-0.01464844,-2.98118591,-0.13542175,-0.13542175,-0.02441406
0.01936746,10,3.09228705,3.02010964,-2.15842446,-0.02212524,-1.59310245,-0.35667419,-3.12363670,2.82245400,-1.61553871,-0.00190735,-1.58524260,-2.41241455,-3.12261517,2.78245400,-1.57553871,-0.00190735,-1.58966922,-2.41279602,-0.00488281,-0.00488281,0.00488281,-0.01464844,0.01464844,-0.02929688,-2.98118591,-0.13542175,-0.13542175,-0.02441406
0.03010893,15,3.09228705,3.03002786,-2.17749794,-0.02212524,-1.59310245,-0.35667419,-3.12371932,2.84245400,-1.63553871,-0.00190735,-1.58488460,-2.41241455,-3.12261517,2.78245400,-1.57553871,-0.00190735,-1.58928775,-2.41241455,-0.00976562,0.00000000,0.00488281,-0.01464844,0.02929688,-0.01464844,-2.98118591,-0.13542175,-0.13542175,-0.02441406
0.04069591,20,3.09228705,3.03994607,-2.19618996,-0.02212524,-1.59310245,-0.35667419,-3.12374639,2.86245400,-1.65553871,-0.00190735,-1.58476729,-2.41241455,-3.12261517,2.78245400,-1.57553871,-0.00190735,-1.58890628,-2.41241455,-0.00488281,0.00488281,-0.01464844,-0.01464844,0.04394531,-0.01464844,-2.98118591,-0.13542175,-0.13542175,-0.02441406
0.05127048,25,3.09228705,3.04948281,-2.20915993,-0.02212524,-1.59310245,-0.35667419,-3.12375526,2.88245400,-1.67553871,-0.00190735,-1.58472885,-2.41241455,-3.12261517,2.78283547,-1.57592018,-0.00228882,-1.58890628,-2.41279602,-0.00488281,0.03906250,-0.03417969,-0.02929688,0.01464844,-0.01464844,-2.98118591,-0.13542175,-0.13542175,-0.04882812
0.06151557,30,3.09228705,3.05520486,-2.22861489,-0.02212524,-1.59310245,-0.35667419,-3.12375817,2.90245400,-1.69553871,-0.00190735,-1.58471625,-2.41241455,-3.12261517,2.78359841,-1.57668312,-0.00190735,-1.58852481,-2.41279602,-0.00488281,0.05859375,-0.04394531,-0.01464844,0.01464844,0.00000000,-2.98118591,-0.13542175,-0.13542175,-0.02441406
0.07194424,35,3.09228705,3.06436013,-2.24730690,-0.02212524,-1.59310245,-0.35667419,-3.12375912,2.92245400,-1.71553871,-0.00190735,-1.58471213,-2.41241455,-3.12261517,2.78436135,-1.57744606,-0.00190735,-1.58852481,-2.41241455,-0.00488281,0.07324219,-0.07812500,-0.01464844,0.01464844,-0.02929688,-2.98118591,-0.13542175,-0.13542175,-0.02441406
0.08274341,40,3.09228705,3.07084512,-2.25951393,-0.02212524,-1.59310245,-0.35667419,-3.12375943,2.94245400,-1.73553871,-0.00190735,-1.58471078,-2.41241455,-3.12261517,2.78474282,-1.57820900,-0.00190735,-1.58852481,-2.41241455,-0.00976562,0.05371094,-0.06835938,-0.01464844,0.01464844,-0.01464844,-2.98118591,-0.13542175,-0.13542175,-0.02441406
0.09310627,45,3.09228705,3.08076333,-2.27858742,-0.02212524,-1.59310245,-0.35667419,-3.12375953,2.96245400,-1.75553871,-0.00190735,-1.58471033,-2.41241455,-3.12261517,2.78588723,-1.57935341,-0.00228882,-1.58852481,-2.41241455,-0.00976562,0.09765625,-0.11230469,-0.07324219,0.02929688,0.00000000,-2.98118591,-0.13542175,-0.13542175,0.00000000
0.10376143,50,3.09228705,3.08953713,-2.29727944,-0.02212524,-1.59310245,-0.35667419,-3.12375957,2.98245400,-1.77553871,-0.00190735,-1.58471019,-2.41241455,-3.12261517,2.78665017,-1.58087929,-0.00228882,-1.58852481,-2.41241455,-0.00976562,0.07324219,-0.15625000,-0.01464844,0.01464844,-0.01464844,-2.98118591,-0.13542175,-0.13542175,-0.02441406
0.11497378,55,3.09228705,3.09869241,-2.31597145,-0.02212524,-1.59348392,-0.35667419,-3.12375958,3.00245400,-1.79553871,-0.00190735,-1.58484747,-2.41241455,-3.12261517,2.78855752,-1.58316811,-0.00228882,-1.58814334,-2.41241455,-0.00488281,0.17089844,-0.21484375,-0.02929688,0.01464844,0.00000000,-2.98118591,-0.13542175,-0.13542175,-0.04882812
0.12537384,60,3.09228705,3.10479592,-2.32817849,-0.02212524,-1.59310245,-0.35667419,-3.12375958,3.02245400,-1.81553871,-0.00190735,-1.58478637,-2.41241455,-3.12261517,2.79084634,-1.58660134,-0.00228882,-1.58814334,-2.41279602,-0.00488281,0.21484375,-0.26855469,0.00000000,0.02929688,-0.01464844,-2.98118591,-0.13542175,-0.13542175,-0.02441406
0.13585019,65,3.09228705,3.11471414,-2.34648903,-0.02212524,-1.59310245,-0.35667419,-3.12375958,3.04245400,-1.83553871,-0.00190735,-1.58473510,-2.41241455,-3.12261517,2.79427957,-1.59041603,-0.00228882,-1.58814334,-2.41241455,-0.00976562,0.30273438,-0.32714844,-0.01464844,0.01464844,0.00000000,-2.98118591,-0.13542175,-0.13542175,-0.02441406
0.14631557,70,3.09228705,3.12119912,-2.35907753,-0.02212524,-1.59348392,-0.35667419,-3.12375958,3.06245400,-1.85553871,-0.00190735,-1.58485563,-2.41241455,-3.12261517,2.79694985,-1.59308632,-0.00228882,-1.58814334,-2.41241455,-0.01464844,0.33691406,-0.35644531,-0.01464844,0.02929688,-0.01464844,-2.98118591,-0.13542175,-0.13542175,-0.02441406
0.15688777,75,3.09228705,3.13035439,-2.37891396,-0.02212524,-1.59310245,-0.35667419,-3.12375958,3.08245400,-1.87553871,-0.00190735,-1.58475780,-2.41241455,-3.12261517,2.80152749,-1.59766396,-0.00228882,-1.58814334,-2.41279602,-0.00488281,0.36132812,-0.36132812,-0.01464844,0.02929688,-0.01464844,-2.98118591,-0.13542175,-0.13542175,0.00000000
0.16717458,80,3.09228705,3.13874673,-2.39608010,-0.02212524,-1.59310245,-0.35667419,-3.12375958,3.10245400,-1.89553871,-0.00190735,-1.58472574,-2.41241455,-3.12261517,2.80610513,-1.60186013,-0.00305176,-1.58814334,-2.41279602,0.00000000,0.38574219,-0.33691406,-0.07324219,0.01464844,-0.01464844,-2.98118591,-0.13542175,-0.13542175,-0.04882812
0.17745543,85,3.09228705,-3.13871653,-2.40714272,-0.02212524,-1.59310245,-0.35667419,-3.12375958,3.12245400,-1.91553871,-0.00190735,-1.58471524,-2.41241455,-3.12261517,2.80953835,-1.60453041,-0.00381470,-1.58776187,-2.41279602,0.00000000,0.40039062,-0.33691406,-0.07324219,0.04394531,0.00000000,-2.98118591,-0.13542175,-0.13542175,-0.04882812
0.18773556,90,3.09228705,-3.13032420,-2.42392739,-0.02212524,-1.59310245,-0.35667419,-3.12375958,3.14245400,-1.93553871,-0.00190735,-1.58478211,-2.41241455,-3.12261517,2.81373452,-1.60834511,-0.00419617,-1.58776187,-2.41279602,-0.00488281,0.37597656,-0.34179688,-0.02929688,0.02929688,-0.01464844,-2.98118591,-0.13542175,-0.13542175,0.00000000
0.19849515,95,3.09228705,-3.12231333,-2.44147499,-0.02212524,-1.59348392,-0.35667419,-3.12375958,3.16245400,-1.95553871,-0.00190735,-1.58487103,-2.41241455,-3.12261517,2.81869363,-1.61330422,-0.00381470,-1.58699893,-2.41279602,-0.00976562,0.37597656,-0.37109375,0.00000000,0.08789062,0.00000000,-2.98118591,-0.13542175,-0.13542175,-0.02441406
0.20932603,100,3.09228705,-3.11697276,-2.45291909,-0.02212524,-1.59310245,-0.35667419,-3.12375958,3.18245400,-1.97553871,-0.00190735,-1.58479410,-2.41241455,-3.12261517,2.82174539,-1.61673745,-0.00381470,-1.58585453,-2.41241455,-0.00488281,0.41015625,-0.43457031,-0.02929688,0.10253906,-0.01464844,-2.98118591,-0.13542175,-0.13542175,-0.02441406
0.21997595,105,3.09228705,-3.10896189,-2.46970375,-0.02212524,-1.59310245,-0.35667419,-3.12375958,3.20245400,-1.99553871,-0.00190735,-1.58473763,-2.41241455,-3.12261517,2.82708596,-1.62207802,-0.00381470,-1.58585453,-2.41279602,0.00000000,0.44921875,-0.46386719,-0.01464844,0.02929688,-0.01464844,-2.98118591,-0.13542175,-0.13542175,-0.02441406
0.23018503,110,3.09228705,-3.10056956,-2.48572548,-0.02212524,-1.59310245,-0.35667419,-3.12375958,3.22245400,-2.01553871,-0.00190735,-1.58478945,-2.41241455,-3.12261517,2.83166360,-1.62627419,-0.00381470,-1.58585453,-2.41279602,-0.00488281,0.48828125,-0.48339844,-0.01464844,-0.01464844,-0.01464844,-2.98118591,-0.13542175,-0.13542175,0.00000000
0.24051905,115,3.09228705,-3.09255870,-2.50251015,-0.02212524,-1.59310245,-0.35667419,-3.12375958,3.23669937,-2.03553871,-0.00190735,-1.58473611,-2.41241455,-3.12261517,2.83776711,-1.63275917,-0.00381470,-1.58585453,-2.41279602,-0.00488281,0.50292969,-0.52734375,-0.01464844,0.02929688,-0.02929688,-2.98118591,-0.13542175,-0.13542175,0.00000000
0.25113106,120,3.09228705,-3.08759959,-2.51357277,-0.02212524,-1.59310245,-0.35667419,-3.12375958,3.24608176,-2.05553871,-0.00190735,-1.58478895,-2.41241455,-3.12261517,2.84425210,-1.63962563,-0.00381470,-1.58585453,-2.41241455,-0.00488281,0.54199219,-0.54687500,0.00000000,-0.00000000,-0.01464844,-2.98118591,-0.13542175,-0.13542175,-0.04882812
0.26161647,125,3.09228705,-3.07997019,-2.53112038,-0.02250671,-1.59310245,-0.35667419,-3.12375958,3.25364593,-2.07553871,-0.00198364,-1.58473595,-2.41241455,-3.12261517,2.84844827,-1.64382180,-0.00381470,-1.58585453,-2.41241455,-0.00488281,0.54687500,-0.53710938,-0.01464844,0.01464844,0.00000000,-2.98118591,-0.13542175,-0.13542175,-0.02441406
0.27213311,130,3.09228705,-3.07501109,-2.54180153,-0.02212524,-1.59310245,-0.35667419,-3.12375958,3.26009832,-2.09553871,-0.00196360,-1.58471858,-2.41241455,-3.12261517,2.85455178,-1.65030678,-0.00381470,-1.58585453,-2.41279602,-0.00488281,0.51269531,-0.56152344,-0.04394531,0.04394531,-0.01464844,-2.98118591,-0.13542175,-0.13542175,-0.02441406
0.28313446,135,3.09228705,-3.06738169,-2.55706032,-0.02212524,-1.59310245,-0.35667419,-3.12375958,3.26725414,-2.11553871,-0.00192578,-1.58471289,-2.41241455,-3.12261517,2.86065530,-1.65679177,-0.00381470,-1.58509159,-2.41279602,-0.00488281,0.53222656,-0.55664062,-0.01464844,0.05859375,-0.01464844,-2.98118591,-0.13542175,-0.13542175,-0.02441406
0.29345560,140,3.09228705,-3.06013377,-2.57270058,-0.02212524,-1.59310245,-0.35667419,-3.12375958,3.27392012,-2.13553871,-0.00191339,-1.58471102,-2.41241455,-3.12261517,2.86523293,-1.66098793,-0.00381470,-1.58509159,-2.41241455,-0.00488281,0.54199219,-0.55664062,-0.01464844,0.05859375,0.01464844,-2.98118591,-0.13556238,-0.13542175,-0.02441406
0.30425239,145,3.09228705,-3.05288584,-2.58872231,-0.02212524,-1.59310245,-0.35667419,-3.12375958,3.28082892,-2.15553871,-0.00190933,-1.58471041,-2.41241455,-3.12261517,2.87171792,-1.66861733,-0.00381470,-1.58471012,-2.41279602,-0.00488281,0.52246094,-0.61523438,-0.01464844,0.05859375,-0.01464844,-2.98118591,-0.13546783,-0.13542175,-0.02441406
0.31448841,150,3.09228705,-3.04830821,-2.59940346,-0.02212524,-1.59310245,-0.35667419,-3.12375958,3.28698977,-2.17553871,-0.00190800,-1.58479810,-2.41241455,-3.12261517,2.87820291,-1.67586525,-0.00381470,-1.58394718,-2.41279602,-0.00976562,0.55664062,-0.62988281,0.00000000,0.08789062,-0.01464844,-2.98118591,-0.13543685,-0.13542175,0.00000000
0.32526660,155,3.09228705,-3.04106028,-2.61504372,-0.02212524,-1.59310245,-0.35667419,-3.12375958,3.29310072,-2.19553871,-0.00190756,-1.58473895,-2.41241455,-3.12261517,2.88239907,-1.68120583,-0.00381470,-1.58318424,-2.41279602,-0.00488281,0.56152344,-0.64941406,-0.01464844,0.07324219,-0.01464844,-2.98118591,-0.13542670,-0.13542175,-0.02441406
0.33555770,160,3.09228705,-3.03419383,-2.63030251,-0.02212524,-1.59310245,-0.35667419,-3.12375958,3.29989978,-2.21553871,-0.00190742,-1.58478988,-2.41241455,-3.12261517,2.88888406,-1.68921669,-0.00343323,-1.58280277,-2.41241455,-0.00488281,0.55175781,-0.68359375,0.00000000,0.07324219,-0.01464844,-2.98118591,-0.13542337,-0.13542175,0.00000000
0.34605026,165,3.09228705,-3.02923472,-2.64060219,-0.02212524,-1.59310245,-0.35667419,-3.12375958,3.30594325,-2.23553871,-0.00190737,-1.58482414,-2.41241455,-3.12261517,2.89575051,-1.69722756,-0.00381470,-1.58280277,-2.41241455,0.00000000,0.58593750,-0.68359375,-0.01464844,0.01464844,-0.01464844,-2.98118591,-0.13542228,-0.13542175,-0.02441406
0.35676312,170,3.09228705,-3.02160533,-2.65586098,-0.02212524,-1.59348392,-0.35667419,-3.12375958,3.31239135,-2.25553871,-0.00190736,-1.58482377,-2.41241455,-3.12261517,2.89994668,-1.70333107,-0.00343323,-1.58242130,-2.41279602,-0.00976562,0.53710938,-0.70800781,0.00000000,0.02929688,-0.02929688,-2.98118591,-0.13542193,-0.13542175,-0.02441406
0.36775136,175,3.09228705,-3.01473887,-2.67111977,-0.02212524,-1.59310245,-0.35667419,-3.12375958,3.31930090,-2.27553871,-0.00190735,-1.58485722,-2.41241455,-3.12299664,2.90643167,-1.71134194,-0.00381470,-1.58242130,-2.41241455,-0.00976562,0.51757812,-0.69824219,-0.01464844,0.02929688,0.00000000,-2.98118591,-0.13542181,-0.13542175,-0.02441406
0.37845564,180,3.09228705,-3.00787242,-2.68676003,-0.02212524,-1.59310245,-0.35667419,-3.12375958,3.32599397,-2.29553871,-0.00190735,-1.58475832,-2.41241455,-3.12299664,2.91291665,-1.72049721,-0.00381470,-1.58242130,-2.41279602,-0.00488281,0.53222656,-0.73242188,-0.01464844,-0.00000000,0.00000000,-2.98118591,-0.13542177,-0.13542175,0.00000000
0.38969064,185,3.09228705,-3.00100596,-2.70240029,-0.02212524,-1.59310245,-0.35667419,-3.12375958,3.33251064,-2.31553871,-0.00190735,-1.58472591,-2.41241455,-3.12299664,2.91902017,-1.72927101,-0.00343323,-1.58242130,-2.41279602,-0.00976562,0.50292969,-0.74707031,-0.01464844,0.01464844,-0.01464844,-2.98118591,-0.13542176,-0.13542175,-0.04882812
0.40010118,190,3.09228705,-2.99642832,-2.71308144,-0.02212524,-1.59348392,-0.35667419,-3.12375958,3.33880472,-2.33553871,-0.00190735,-1.58490145,-2.41241455,-3.12299664,2.92321633,-1.73537453,-0.00381470,-1.58242130,-2.41241455,-0.00976562,0.52246094,-0.78613281,-0.02929688,-0.00000000,-0.02929688,-2.98118591,-0.13542175,-0.13542175,-0.02441406
0.41067982,195,3.09228705,-2.98918040,-2.72872170,-0.02212524,-1.59310245,-0.35667419,-3.12375958,3.34495932,-2.35553871,-0.00190735,-1.58477281,-2.41241455,-3.12299664,2.93008279,-1.74491127,-0.00343323,-1.58242130,-2.41279602,-0.00976562,0.55175781,-0.78613281,-0.02929688,-0.00000000,-0.02929688,-2.98118591,-0.13542175,-0.13542175,-0.02441406
0.42127681,200,3.09228705,-2.98231394,-2.74436196,-0.02212524,-1.59310245,-0.35667419,-3.12375958,3.35129223,-2.37553871,-0.00190735,-1.58473066,-2.41241455,-3.12299664,2.93656777,-1.75521096,-0.00381470,-1.58242130,-2.41241455,-0.00488281,0.54687500,-0.81542969,-0.01464844,0.01464844,-0.01464844,-2.98118591,-0.13542175,-0.13542175,-0.02441406
0.43222189,205,3.09228705,-2.97773631,-2.75466164,-0.02212524,-1.59348392,-0.35667419,-3.12375958,3.35752608,-2.39553871,-0.00190735,-1.58485418,-2.41241455,-3.12299664,2.94114541,-1.76131447,-0.00381470,-1.58242130,-2.41279602,-0.00976562,0.55664062,-0.79589844,-0.01464844,0.02929688,-0.02929688,-2.98118591,-0.13542175,-0.13542175,-0.02441406
0.44382453,210,3.09228705,-2.97048838,-2.77030190,-0.02212524,-1.59348392,-0.35667419,-3.12375958,3.36408820,-2.41553871,-0.00190735,-1.58490393,-2.41241455,-3.12299664,2.94801187,-1.77123268,-0.00343323,-1.58242130,-2.41279602,-0.00488281,0.57617188,-0.80078125,-0.01464844,0.01464844,-0.01464844,-2.98118591,-0.13542175,-0.13542175,-0.02441406
0.45437193,215,3.09228705,-2.96362193,-2.78517922,-0.02212524,-1.59348392,-0.35667419,-3.12375958,3.37060786,-2.43553871,-0.00190735,-1.58488117,-2.41241455,-3.12299664,2.95487832,-1.78153237,-0.00343323,-1.58242130,-2.41241455,-0.00488281,0.55175781,-0.81542969,-0.01464844,0.02929688,0.00000000,-2.98118591,-0.13542175,-0.13542175,-0.02441406
0.46503115,220,3.09228705,-2.95789988,-2.79662331,-0.02212524,-1.59348392,-0.35667419,-3.12375958,3.37714108,-2.45553871,-0.00190735,-1.58502264,-2.41241455,-3.12299664,2.95945596,-1.78801735,-0.00381470,-1.58242130,-2.41241455,-0.00488281,0.56152344,-0.79589844,-0.01464844,0.01464844,0.00000000,-2.98118591,-0.13542175,-0.13542175,-0.02441406
0.47538090,225,3.09228705,-2.95065196,-2.81226357,-0.02212524,-1.59348392,-0.35667419,-3.12375958,3.38360500,-2.47553871,-0.00190735,-1.58506899,-2.41241455,-3.12299664,2.96594094,-1.79755410,-0.00343323,-1.58203983,-2.41279602,-0.00976562,0.55175781,-0.78613281,-0.01464844,0.01464844,-0.02929688,-2.98118591,-0.13542175,-0.13542175,-0.02441406
0.48667955,230,3.09228705,-2.94454844,-2.82408913,-0.02212524,-1.59348392,-0.35667419,-3.12375958,3.39025728,-2.49553871,-0.00190735,-1.58499629,-2.41241455,-3.12299664,2.97090005,-1.80480202,-0.00381470,-1.58203983,-2.41279602,-0.00976562,0.52734375,-0.78125000,-0.02929688,0.02929688,-0.01464844,-2.98118591,-0.13542175,-0.13542175,-0.02441406
0.49740100,235,3.09228705,-2.93691905,-2.84201821,-0.02212524,-1.59310245,-0.35667419,-3.12375958,3.39699520,-2.51553871,-0.00190735,-1.58498407,-2.41241455,-3.12299664,2.97852944,-1.81510170,-0.00343323,-1.58165836,-2.41279602,-0.00976562,0.56152344,-0.78613281,-0.01464844,0.02929688,-0.01464844,-2.98118591,-0.13542175,-0.13542175,-0.02441406
0.50768828,240,3.09228705,-2.93195994,-2.85346230,-0.02212524,-1.59310245,-0.35667419,-3.12375958,3.40324715,-2.53553871,-0.00190735,-1.58479988,-2.41241455,-3.12299664,2.98310708,-1.82120522,-0.00343323,-1.58165836,-2.41279602,-0.00976562,0.53710938,-0.78125000,-0.01464844,0.02929688,-0.02929688,-2.98118591,-0.13542175,-0.13542175,-0.02441406
0.51830602,245,3.09228705,-2.92471202,-2.87024697,-0.02212524,-1.59310245,-0.35667419,-3.12375958,3.40965358,-2.55553871,-0.00190735,-1.58484939,-2.41241455,-3.12299664,2.98997354,-1.83150490,-0.00343323,-1.58127689,-2.41279602,-0.00488281,0.53710938,-0.80566406,-0.01464844,0.01464844,-0.01464844,-2.98118591,-0.13542175,-0.13542175,-0.04882812
0.52859592,250,3.09228705,-2.91822703,-2.88665016,-0.02212524,-1.59310245,-0.35667419,-3.12375958,3.41605862,-2.57553871,-0.00190735,-1.58482607,-2.41241455,-3.12299664,2.99455117,-1.83760842,-0.00343323,-1.58127689,-2.41279602,-0.00488281,0.57617188,-0.80078125,-0.01464844,0.02929688,-0.02929688,-2.98118591,-0.13542175,-0.13542175,-0.02441406
0.53918910,255,3.09228705,-2.91326792,-2.89733132,-0.02212524,-1.59310245,-0.35667419,-3.12375958,3.42206087,-2.59553871,-0.00190735,-1.58474811,-2.41241455,-3.12299664,3.00065469,-1.84714516,-0.00343323,-1.58127689,-2.41241455,-0.00488281,0.54687500,-0.81054688,-0.01464844,-0.00000000,0.00000000,-2.98118591,-0.13542175,-0.13542175,-0.02441406
0.54938340,260,3.09228705,-2.90602000,-2.91297158,-0.02212524,-1.59310245,-0.35667419,-3.12375958,3.42881272,-2.61553871,-0.00190735,-1.58490274,-2.41241455,-3.12299664,3.00752114,-1.85668190,-0.00343323,-1.58127689,-2.41241455,-0.00488281,0.56152344,-0.80078125,-0.01464844,0.01464844,0.00000000,-2.98118591,-0.13542175,-0.13542175,0.00000000
0.55982518,265,3.09228705,-2.89915354,-2.92937477,-0.02212524,-1.59348392,-0.35667419,-3.12375958,3.43516018,-2.63553871,-0.00190735,-1.58493742,-2.41241455,-3.12299664,3.01171731,-1.86316689,-0.00343323,-1.58127689,-2.41279602,-0.00488281,0.55175781,-0.80078125,-0.01464844,0.01464844,-0.01464844,-2.98118591,-0.13542175,-0.13542175,-0.04882812
0.57047749,270,3.09228705,-2.89457591,-2.94081887,-0.02212524,-1.59310245,-0.35667419,-3.12375958,3.44091833,-2.65553871,-0.00190735,-1.58481585,-2.41241455,-3.12299664,3.01782083,-1.87232216,-0.00343323,-1.58165836,-2.41279602,-0.00976562,0.53710938,-0.79589844,0.00000000,0.01464844,-0.01464844,-2.98118591,-0.13542175,-0.13542175,-0.02441406
0.58126998,275,3.09228705,-2.88694651,-2.95836647,-0.02212524,-1.59310245,-0.35667419,-3.12375958,3.44735692,-2.67553871,-0.00190735,-1.58492494,-2.41241455,-3.12337811,3.02468728,-1.88185891,-0.00343323,-1.58165836,-2.41279602,-0.00976562,0.54687500,-0.79589844,-0.01464844,0.02929688,0.00000000,-2.98118591,-0.13542175,-0.13542175,0.00000000
0.59248734,280,3.09228705,-2.88122447,-2.97248085,-0.02212524,-1.59348392,-0.35667419,-3.12375958,3.45362187,-2.69553871,-0.00190735,-1.58500573,-2.41241455,-3.12337811,3.03155374,-1.89177712,-0.00305176,-1.58165836,-2.41279602,-0.00976562,0.55664062,-0.77636719,0.00000000,0.01464844,-0.01464844,-2.98118591,-0.13542175,-0.13542175,-0.02441406
0.60298729,285,3.09228705,-2.87359507,-2.98964699,-0.02212524,-1.59348392,-0.35667419,-3.12375958,3.46072018,-2.71553871,-0.00190735,-1.58488328,-2.41241455,-3.12337811,3.03574990,-1.89788063,-0.00343323,-1.58127689,-2.41279602,-0.00976562,0.54687500,-0.79101562,-0.01464844,0.02929688,-0.01464844,-2.98118591,-0.13542175,-0.13542175,0.00000000
0.61386275,290,3.09228705,-2.86672862,-3.00719460,-0.02212524,-1.59348392,-0.35667419,-3.12375958,3.46741554,-2.73553871,-0.00190735,-1.58487440,-2.41241455,-3.12337811,3.04299783,-1.90741738,-0.00343323,-1.58127689,-2.41279602,-0.00488281,0.59082031,-0.77636719,-0.02929688,0.02929688,-0.02929688,-2.98118591,-0.13542175,-0.13542175,0.00000000
0.62460613,295,3.09228705,-2.86176951,-3.01863869,-0.02212524,-1.59348392,-0.35667419,-3.12375958,3.47351292,-2.75553871,-0.00190735,-1.58493253,-2.41241455,-3.12337811,3.04986428,-1.91695412,-0.00305176,-1.58089542,-2.41279602,-0.00488281,0.55175781,-0.80078125,0.00000000,0.04394531,-0.01464844,-2.98118591,-0.13542175,-0.13542175,-0.02441406
0.63817644,300,3.09190558,-2.85452159,-3.03694924,-0.02212524,-1.59348392,-0.35667419,-3.12389691,3.48041508,-2.77553871,-0.00199524,-1.58492032,-2.41241455,-3.12337811,3.05444192,-1.92343911,-0.00305176,-1.58089542,-2.41241455,-0.00488281,0.57128906,-0.78125000,0.00000000,0.04394531,-0.01464844,-2.98118591,-0.13542175,-0.13542175,-0.02441406
0.64757657,305,3.09190558,-2.84689219,-3.05525978,-0.02212524,-1.59310245,-0.35667419,-3.12406105,3.48756790,-2.79553871,-0.00193615,-1.58489814,-2.41241455,-3.12337811,3.06130837,-1.93297585,-0.00305176,-1.58013248,-2.41279602,-0.00488281,0.56640625,-0.80566406,0.00000000,0.04394531,-0.01464844,-2.98118591,-0.13542175,-0.13580322,-0.04882812
0.65820336,310,3.09190558,-2.83964427,-3.07395180,-0.02212524,-1.59310245,-0.35667419,-3.12411484,3.49424217,-2.81553871,-0.00202665,-1.58481079,-2.41241455,-3.12337811,3.06893777,-1.94441994,-0.00305176,-1.57975101,-2.41241455,-0.00488281,0.52246094,-0.80078125,0.00000000,0.02929688,-0.01464844,-2.98118591,-0.13542175,-0.13542175,-0.02441406
0.67055202,315,3.09190558,-2.83392222,-3.08882912,-0.02212524,-1.59310245,-0.35667419,-3.12413246,3.50069959,-2.83553871,-0.00203433,-1.58483100,-2.41241455,-3.12337811,3.07427834,-1.95166787,-0.00267029,-1.57975101,-2.41279602,-0.00488281,0.55175781,-0.80078125,-0.01464844,0.01464844,-0.02929688,-2.98118591,-0.13542175,-0.13542175,-0.02441406
0.68144917,320,3.09190558,-2.82667430,-3.10713967,-0.02212524,-1.59348392,-0.35667419,-3.12413824,3.50801465,-2.85553871,-0.00194896,-1.58497495,-2.41241455,-3.12337811,3.08076333,-1.96120461,-0.00267029,-1.57975101,-2.41241455,-0.00976562,0.53222656,-0.79589844,-0.01464844,-0.00000000,-0.01464844,-2.98118591,-0.13542175,-0.13542175,-0.02441406
0.69172525,325,3.09190558,-2.81942637,-3.12506874,-0.02212524,-1.59348392,-0.35667419,-3.12414013,3.51471524,-2.87553871,-0.00192098,-1.58498305,-2.41241455,-3.12337811,3.08686685,-1.97074135,-0.00305176,-1.57975101,-2.41279602,0.00000000,0.53710938,-0.79589844,-0.01464844,0.01464844,-0.01464844,-2.98118591,-0.13542175,-0.13580322,-0.04882812
0.70211911,330,3.09190558,-2.81446727,-3.13803871,-0.02212524,-1.59310245,-0.35667419,-3.12414075,3.52081433,-2.89553871,-0.00191182,-1.58491869,-2.41241455,-3.12337811,3.09182595,-1.97760781,-0.00305176,-1.58013248,-2.41241455,-0.00488281,0.59082031,-0.80566406,-0.01464844,-0.00000000,-0.01464844,-2.98118591,-0.13542175,-0.13542175,-0.02441406
0.71313643,335,3.09190558,-2.80721934,3.12683605,-0.02212524,-1.59348392,-0.35667419,-3.12414095,3.52768580,-2.91553871,-0.00190881,-1.58503493,-2.41241455,-3.12337811,3.09869241,-1.98714455,-0.00267029,-1.58013248,-2.41279602,-0.00976562,0.56640625,-0.80078125,-0.01464844,0.01464844,-0.01464844,-2.98080444,-0.13514709,-0.13542175,0.00000000
0.72348237,340,3.09190558,-2.79997142,3.10814403,-0.02212524,-1.59348392,-0.35667419,-3.12414102,3.53406086,-2.93553871,-0.00190783,-1.58500271,-2.41241455,-3.12337811,3.10555886,-1.99668129,-0.00305176,-1.58013248,-2.41279602,-0.00976562,0.60546875,-0.80566406,-0.01464844,-0.00000000,-0.01464844,-2.98118591,-0.13533175,-0.13542175,-0.02441406
0.73403287,345,3.09190558,-2.79463084,3.09517406,-0.02212524,-1.59348392,-0.35667419,-3.12414104,3.54047040,-2.95553871,-0.00190751,-1.58506246,-2.41241455,-3.12337811,3.11051797,-2.00316628,-0.00267029,-1.58013248,-2.41241455,-0.00976562,0.59570312,-0.80078125,-0.01464844,0.01464844,0.00000000,-2.98118591,-0.13539226,-0.13542175,-0.02441406
0.74446917,350,3.09190558,-2.78738291,3.07610057,-0.02212524,-1.59348392,-0.35667419,-3.12414105,3.54749438,-2.97553871,-0.00190740,-1.58508204,-2.41241455,-3.12337811,3.11700295,-2.01270302,-0.00305176,-1.57975101,-2.41241455,-0.00976562,0.57128906,-0.80078125,0.00000000,0.01464844,-0.01464844,-2.98118591,-0.13541209,-0.13542175,-0.02441406
0.75474477,355,3.09190558,-2.78089793,3.05702709,-0.02212524,-1.59348392,-0.35667419,-3.12414105,3.55373557,-2.99553871,-0.00190737,-1.58497860,-2.41241455,-3.12337811,3.12425088,-2.02185829,-0.00305176,-1.57975101,-2.41279602,-0.00488281,0.61035156,-0.78125000,-0.01464844,-0.00000000,-0.02929688,-2.98118591,-0.13541859,-0.13542175,-0.02441406
0.76565647,360,3.09190558,-2.77403147,3.03795360,-0.02250671,-1.59348392,-0.35667419,-3.12414105,3.55982439,-3.01553871,-0.00198365,-1.58496667,-2.41241455,-3.12337811,3.13073586,-2.03101357,-0.00267029,-1.57975101,-2.41241455,-0.00488281,0.57128906,-0.78613281,-0.01464844,0.02929688,-0.01464844,-2.98118591,-0.13542072,-0.13542175,-0.02441406
0.77589250,365,3.09152411,-2.76945384,3.02574657,-0.02212524,-1.59310245,-0.35667419,-3.12427838,3.56589037,-3.03553871,-0.00196360,-1.58491332,-2.41241455,-3.12337811,3.13493203,-2.03711708,-0.00267029,-1.57975101,-2.41279602,-0.00488281,0.55664062,-0.76660156,-0.01464844,0.02929688,-0.01464844,-2.98118591,-0.13542141,-0.13542175,-0.04882812
0.78699493,370,3.09152411,-2.76220591,3.00705455,-0.02212524,-1.59348392,-0.35667419,-3.12444252,3.57244631,-3.05553871,-0.00192578,-1.58503317,-2.41241455,-3.12337811,-3.14138682,-2.04627236,-0.00267029,-1.57936954,-2.41241455,-0.00488281,0.55664062,-0.78613281,0.00000000,0.04394531,-0.01464844,-2.98118591,-0.13542164,-0.13542175,-0.02441406
0.79790592,375,3.09152411,-2.75686534,2.99179576,-0.02212524,-1.59348392,-0.35667419,-3.12449631,3.57833944,-3.07553871,-0.00191339,-1.58507244,-2.41241455,-3.12337811,-3.13642771,-2.05352028,-0.00267029,-1.57936954,-2.41279602,-0.00488281,0.53222656,-0.77636719,0.00000000,0.04394531,-0.01464844,-2.98118591,-0.13542172,-0.13542175,0.00000000
0.80832529,380,3.09152411,-2.74961741,2.97119640,-0.02212524,-1.59310245,-0.35667419,-3.12451393,3.58451305,-3.09553871,-0.00190933,-1.58482884,-2.41241455,-3.12337811,-3.12994273,-2.06305703,-0.00267029,-1.57898807,-2.41279602,-0.00488281,0.55664062,-0.82519531,0.00000000,0.02929688,-0.01464844,-2.98118591,-0.13542174,-0.13542175,-0.02441406
0.81873178,385,3.09152411,-2.74503977,2.95898937,-0.02212524,-1.59310245,-0.35667419,-3.12451971,3.59039442,-3.11553871,-0.00190800,-1.58483691,-2.41241455,-3.12337811,-3.12269480,-2.07297524,-0.00267029,-1.57936954,-2.41279602,-0.00488281,0.54687500,-0.81054688,0.00000000,0.01464844,-0.01464844,-2.98118591,-0.13542175,-0.13542175,0.00000000
0.82914805,390,3.09152411,-2.73817332,2.93953441,-0.02212524,-1.59348392,-0.35667419,-3.12452160,3.59640780,-3.13553871,-0.00190756,-1.58489827,-2.41241455,-3.12337811,-3.11849864,-2.07946022,-0.00228882,-1.57936954,-2.41241455,-0.00488281,0.55664062,-0.82519531,-0.01464844,-0.00000000,0.01464844,-2.98118591,-0.13542175,-0.13542175,-0.02441406
0.83967948,395,3.09152411,-2.73130686,2.92122386,-0.02212524,-1.59310245,-0.35667419,-3.12452222,3.60273691,-3.15553871,-0.00190742,-1.58484208,-2.41241455,-3.12337811,-3.11163218,-2.08899697,-0.00267029,-1.57936954,-2.41279602,-0.00488281,0.57617188,-0.80566406,-0.01464844,-0.00000000,-0.02929688,-2.98118591,-0.13542175,-0.13542175,-0.02441406
0.85033512,400,3.09152411,-2.72672923,2.90863536,-0.02212524,-1.59310245,-0.35667419,-3.12452242,3.60867656,-3.17553871,-0.00190737,-1.58484125,-2.41241455,-3.12337811,-3.10514720,-2.09853371,-0.00267029,-1.57936954,-2.41241455,-0.00976562,0.56152344,-0.79589844,-0.01464844,-0.00000000,0.00000000,-2.98080444,-0.13514709,-0.13542175,-0.04882812
0.86095595,405,3.09152411,-2.71948130,2.88918041,-0.02212524,-1.59310245,-0.35667419,-3.12452249,3.61471502,-3.19553871,-0.00190736,-1.58493326,-2.41241455,-3.12337811,-3.10095103,-2.10463723,-0.00267029,-1.57936954,-2.41279602,-0.00976562,0.54687500,-0.77636719,-0.01464844,0.02929688,-0.01464844,-2.98118591,-0.13533175,-0.13580322,-0.02441406
0.87158060,410,3.09152411,-2.71261485,2.87010692,-0.02212524,-1.59348392,-0.35667419,-3.12452251,3.62130284,-3.21553871,-0.00190735,-1.58496939,-2.41241455,-3.12375958,-3.09370311,-2.11417397,-0.00267029,-1.57936954,-2.41241455,-0.01464844,0.59570312,-0.77148438,-0.01464844,0.01464844,-0.01464844,-2.98118591,-0.13539226,-0.13542175,-0.02441406
0.88315630,415,3.09152411,-2.70803721,2.85713695,-0.02212524,-1.59348392,-0.35667419,-3.12452252,3.62732726,-3.23553871,-0.00190735,-1.58496366,-2.41241455,-3.12375958,-3.08721812,-2.12332924,-0.00267029,-1.57936954,-2.41241455,-0.02441406,0.57617188,-0.77636719,-0.01464844,0.01464844,-0.01464844,-2.98118591,-0.13541209,-0.13542175,-0.02441406
0.89346004,420,3.09152411,-2.70117076,2.83691905,-0.02212524,-1.59310245,-0.35667419,-3.12452252,3.63313703,-3.25553871,-0.00197766,-1.58497337,-2.41241455,-3.12414105,-3.08225901,-2.13019570,-0.00267029,-1.57936954,-2.41279602,-0.01953125,0.57617188,-0.79589844,-0.01464844,0.02929688,-0.02929688,-2.98118591,-0.13541859,-0.13542175,-0.02441406
0.90434504,425,3.09152411,-2.69430430,2.81784557,-0.02212524,-1.59348392,-0.35667419,-3.12452252,3.63964991,-3.27553871,-0.00196945,-1.58498254,-2.41241455,-3.12414105,-3.07501109,-2.13935097,-0.00267029,-1.57936954,-2.41279602,-0.00976562,0.60058594,-0.80078125,-0.01464844,0.02929688,-0.02929688,-2.98118591,-0.13542072,-0.13580322,-0.04882812
0.91533160,430,3.09114264,-2.69010813,2.80525707,-0.02250671,-1.59310245,-0.35667419,-3.12465985,3.64542455,-3.29553871,-0.00206503,-1.58491852,-2.41241455,-3.12414105,-3.06776316,-2.14926918,-0.00228882,-1.57936954,-2.41279602,-0.00488281,0.58593750,-0.80078125,-0.01464844,0.01464844,-0.01464844,-2.98118591,-0.13542141,-0.13542175,-0.02441406
0.92578244,435,3.09114264,-2.68362315,2.78656505,-0.02212524,-1.59348392,-0.35667419,-3.12482399,3.65164552,-3.31553871,-0.00204691,-1.58494699,-2.41241455,-3.12414105,-3.06089671,-2.15842446,-0.00267029,-1.57936954,-2.41279602,-0.00488281,0.59570312,-0.80078125,-0.02929688,0.01464844,-0.02929688,-2.98118591,-0.13542164,-0.13542175,-0.02441406
0.93610263,440,3.09114264,-2.67751963,2.76749156,-0.02212524,-1.59348392,-0.35667419,-3.12487778,3.65774260,-3.33553871,-0.00202339,-1.58493434,-2.41241455,-3.12414105,-3.05670054,-2.16490944,-0.00228882,-1.57936954,-2.41279602,0.00000000,0.55175781,-0.79589844,0.00000000,0.01464844,-0.02929688,-2.98118591,-0.13542172,-0.13580322,-0.07324219
0.94655323,445,3.09114264,-2.67141612,2.74841808,-0.02212524,-1.59348392,-0.35667419,-3.12489540,3.66320241,-3.35553871,-0.00209430,-1.58500100,-2.41241455,-3.12414105,-3.05021556,-2.17444619,-0.00267029,-1.57936954,-2.41279602,-0.00488281,0.52246094,-0.79589844,-0.01464844,0.01464844,-0.01464844,-2.98118591,-0.13529967,-0.13542175,-0.02441406
0.95683312,450,3.09114264,-2.66721995,2.73621105,-0.02250671,-1.59310245,-0.35667419,-3.12490118,3.66853042,-3.37553871,-0.00210594,-1.58492457,-2.41241455,-3.12414105,-3.04373057,-2.18360146,-0.00228882,-1.57936954,-2.41279602,-0.00488281,0.53710938,-0.78125000,0.00000000,-0.00000000,0.00000000,-2.98118591,-0.13538175,-0.13542175,0.00000000
0.96803999,455,3.09114264,-2.66111644,2.71790050,-0.02250671,-1.59310245,-0.35667419,-3.12490307,3.67423333,-3.39553871,-0.00215858,-1.58489953,-2.41241455,-3.12414105,-3.03953440,-2.19008644,-0.00228882,-1.57936954,-2.41279602,-0.00488281,0.55175781,-0.79101562,0.00000000,-0.00000000,-0.01464844,-2.98118591,-0.13540864,-0.13542175,-0.02441406
0.97855663,460,3.09114264,-2.65501292,2.69730113,-0.02212524,-1.59348392,-0.35667419,-3.12490369,3.67982228,-3.41553871,-0.00202092,-1.58499740,-2.41241455,-3.12414105,-3.03266795,-2.20000466,-0.00228882,-1.57936954,-2.41279602,-0.00976562,0.55175781,-0.80078125,-0.01464844,0.01464844,-0.02929688,-2.98118591,-0.13541746,-0.13580322,-0.04882812
0.98882508,465,3.09114264,-2.65081675,2.68509410,-0.02212524,-1.59348392,-0.35667419,-3.12490389,3.68509251,-3.43553871,-0.00194456,-1.58506072,-2.41241455,-3.12414105,-3.02542002,-2.20648964,-0.00228882,-1.57936954,-2.41279602,-0.00488281,0.56640625,-0.80566406,-0.02929688,-0.00000000,-0.01464844,-2.98118591,-0.13542035,-0.13542175,-0.02441406
0.99913001,470,3.09114264,-2.64509471,2.66716503,-0.02212524,-1.59310245,-0.35667419,-3.12490396,3.69019726,-3.45553871,-0.00191954,-1.58489532,-2.41241455,-3.12414105,-3.02084239,-2.21640786,-0.00228882,-1.57936954,-2.41279602,-0.00976562,0.57128906,-0.82519531,-0.01464844,0.02929688,-0.02929688,-2.98118591,-0.13542129,-0.13542175,0.00000000
1.00937462,475,3.09114264,-2.64013560,2.64961742,-0.02250671,-1.59348392,-0.35667419,-3.12490398,3.69501513,-3.47553871,-0.00207553,-1.58499602,-2.41241455,-3.12414105,-3.01397593,-2.22594460,-0.00228882,-1.57936954,-2.41279602,-0.00488281,0.60546875,-0.82031250,-0.01464844,0.01464844,-0.01464844,-2.98118591,-0.13542160,-0.13542175,0.00000000
1.02013469,480,3.09114264,-2.63670237,2.63817333,-0.02212524,-1.59348392,-0.35667419,-3.12490399,3.69962278,-3.49553871,-0.00214263,-1.58498996,-2.41241455,-3.12414105,-3.00939830,-2.23204811,-0.00228882,-1.57936954,-2.41279602,-0.00488281,0.58593750,-0.79589844,-0.01464844,0.01464844,-0.01464844,-2.98118591,-0.13542170,-0.13542175,-0.02441406
1.03035784,485,3.09114264,-2.63136180,2.62100719,-0.02250671,-1.59348392,-0.35667419,-3.12490399,3.70437163,-3.51553871,-0.00206074,-1.58494842,-2.41241455,-3.12414105,-3.00291331,-2.24158486,-0.00267029,-1.57936954,-2.41279602,-0.00976562,0.56152344,-0.80566406,-0.01464844,0.02929688,-0.01464844,-2.98118591,-0.13542174,-0.13542175,-0.02441406
1.04077840,490,3.09076117,-2.62716563,2.60460399,-0.02250671,-1.59310245,-0.35667419,-3.12509015,3.70887439,-3.53553871,-0.00217502,-1.58496838,-2.41241455,-3.12414105,-2.99566539,-2.25074013,-0.00267029,-1.57936954,-2.41279602,-0.00488281,0.59570312,-0.76660156,-0.02929688,0.01464844,-0.01464844,-2.98118591,-0.13542175,-0.13580322,-0.04882812
1.05125999,495,3.09076117,-2.62449534,2.59392284,-0.02250671,-1.59348392,-0.35667419,-3.12522146,3.71260949,-3.55553871,-0.00216364,-1.58501996,-2.41241455,-3.12414105,-2.99146922,-2.25684365,-0.00228882,-1.57936954,-2.41279602,-0.00488281,0.54199219,-0.77636719,0.00000000,0.01464844,-0.01464844,-2.98118591,-0.13542175,-0.13542175,-0.02441406
1.06181717,500,3.08999823,-2.61991770,2.57904552,-0.02212524,-1.59348392,-0.35667419,-3.12559725,3.71639152,-3.57553871,-0.00199133,-1.58506812,-2.41241455,-3.12414105,-2.98498423,-2.26599892,-0.00228882,-1.57936954,-2.41279602,-0.00976562,0.53222656,-0.76660156,0.00000000,0.01464844,-0.01464844,-2.98118591,-0.13542175,-0.13542175,0.00000000
1.07220888,505,3.08961676,-2.61572154,2.56454967,-0.02212524,-1.59348392,-0.35667419,-3.12603790,3.72025081,-3.59553871,-0.00193487,-1.58508390,-2.41241455,-3.12414105,-2.97849925,-2.27515419,-0.00228882,-1.57936954,-2.41279602,-0.00976562,0.56152344,-0.79101562,-0.02929688,-0.00000000,-0.01464844,-2.98118591,-0.13542175,-0.13542175,0.00000000
1.08259225,510,3.08923529,-2.61343272,2.55539440,-0.02212524,-1.59348392,-0.35667419,-3.12652665,3.72380619,-3.61553871,-0.00191637,-1.58508907,-2.41241455,-3.12414105,-2.97392161,-2.28163918,-0.00228882,-1.57936954,-2.41279602,-0.00488281,0.55175781,-0.79589844,-0.01464844,0.01464844,-0.01464844,-2.98118591,-0.13542175,-0.13580322,-0.04882812
1.09284997,515,3.08885382,-2.61038096,2.54089855,-0.02212524,-1.59348392,-0.35667419,-3.12690421,3.72672269,-3.63553871,-0.00191030,-1.58509076,-2.41241455,-3.12414105,-2.96743663,-2.29117592,-0.00228882,-1.57936954,-2.41279602,-0.00488281,0.54687500,-0.82519531,-0.01464844,0.01464844,-0.02929688,-2.98118591,-0.13542175,-0.13542175,-0.02441406
1.10340762,520,3.08847235,-2.60847361,2.53288768,-0.02212524,-1.59348392,-0.35667419,-3.12723557,3.72929225,-3.65553871,-0.00199621,-1.58509131,-2.41241455,-3.12414105,-2.96095164,-2.30071266,-0.00228882,-1.57936954,-2.41241455,-0.00488281,0.56640625,-0.80566406,-0.01464844,0.01464844,0.00000000,-2.98118591,-0.13542175,-0.13542175,-0.02441406
1.11390591,525,3.08809088,-2.60542186,2.52106212,-0.02250671,-1.59348392,-0.35667419,-3.12768851,3.73197165,-3.67553871,-0.00201276,-1.58509150,-2.41241455,-3.12414105,-2.95675547,-2.30719765,-0.00228882,-1.57936954,-2.41279602,-0.00976562,0.53222656,-0.82031250,-0.02929688,0.02929688,-0.02929688,-2.98118591,-0.13542175,-0.13542175,0.00000000
1.12412596,530,3.08770941,-2.60351451,2.51305126,-0.02212524,-1.59348392,-0.35667419,-3.12800551,3.73434634,-3.69553871,-0.00197314,-1.58509156,-2.41241455,-3.12414105,-2.95027049,-2.31711586,-0.00228882,-1.57936954,-2.41279602,-0.00976562,0.53710938,-0.79101562,-0.01464844,-0.00000000,-0.02929688,-2.98118591,-0.13542175,-0.13542175,-0.02441406
1.13470626,535,3.08732795,-2.60160716,2.50313304,-0.02212524,-1.59348392,-0.35667419,-3.12841468,3.73639609,-3.71553871,-0.00210908,-1.58509158,-2.41241455,-3.12414105,-2.94416697,-2.32627114,-0.00228882,-1.57936954,-2.41279602,-0.00488281,0.52246094,-0.79101562,-0.01464844,-0.00000000,-0.01464844,-2.98118591,-0.13542175,-0.13542175,-0.02441406
1.14507842,540,3.08656501,-2.60008128,2.49397777,-0.02250671,-1.59348392,-0.35667419,-3.12895184,3.73827380,-3.73553871,-0.00215961,-1.58509158,-2.41241455,-3.12414105,-2.93997081,-2.33237465,-0.00228882,-1.57936954,-2.41279602,-0.00976562,0.49316406,-0.78125000,-0.01464844,0.02929688,-0.01464844,-2.98118591,-0.13542175,-0.13542175,-0.04882812
1.15588951,545,3.08618354,-2.59931834,2.48825572,-0.02212524,-1.59348392,-0.35667419,-3.12953325,3.73950213,-3.75553871,-0.00202126,-1.58509158,-2.41241455,-3.12452252,-2.93348582,-2.34229287,-0.00228882,-1.57936954,-2.41241455,-0.00976562,0.51757812,-0.79589844,-0.01464844,0.01464844,-0.01464844,-2.98118591,-0.13542175,-0.13542175,-0.02441406
1.16581583,550,3.08542060,-2.59817393,2.48062633,-0.02212524,-1.59348392,-0.35667419,-3.13014881,3.74063497,-3.77553024,-0.00199350,-1.58509159,-2.41241455,-3.12452252,-2.92890818,-2.34839638,-0.00228882,-1.57936954,-2.41279602,-0.00976562,0.54687500,-0.77636719,-0.02929688,0.01464844,0.00000000,-2.98118591,-0.13542175,-0.13580322,-0.02441406
1.17644763,555,3.08465766,-2.59779246,2.47452281,-0.02250671,-1.59348392,-0.35667419,-3.13080242,3.74138179,-3.78911565,-0.00201187,-1.58509159,-2.41241455,-3.12452252,-2.92280467,-2.35831459,-0.00228882,-1.57936954,-2.41241455,-0.00976562,0.53222656,-0.81054688,-0.01464844,0.01464844,0.00000000,-2.98118591,-0.13542175,-0.13580322,-0.02441406
1.18646359,560,3.08427619,-2.59702952,2.47070812,-0.02250671,-1.59348392,-0.35667419,-3.13142200,3.74205937,-3.79663251,-0.00211018,-1.58509159,-2.41241455,-3.12452252,-2.91631968,-2.36785134,-0.00228882,-1.57936954,-2.41279602,-0.00976562,0.54199219,-0.80078125,-0.01464844,0.01464844,-0.02929688,-2.98118591,-0.13542175,-0.13542175,-0.02441406
1.19674349,565,3.08313178,-2.59702952,2.46651195,-0.02212524,-1.59348392,-0.35667419,-3.13223622,3.74243179,-3.80184697,-0.00204412,-1.58509159,-2.41241455,-3.12452252,-2.91250498,-2.37433632,-0.00228882,-1.57936954,-2.41279602,-0.00976562,0.51757812,-0.82031250,-0.02929688,0.01464844,-0.02929688,-2.98118591,-0.13542175,-0.13542175,-0.02441406
1.20716810,570,3.08198737,-2.59702952,2.46269725,-0.02250671,-1.59348392,-0.35667419,-3.13321140,3.74255383,-3.80619066,-0.00202846,-1.58509159,-2.41241455,-3.12452252,-2.90678294,-2.38349160,-0.00228882,-1.57936954,-2.41279602,-0.01464844,0.47851562,-0.79589844,-0.02929688,0.01464844,0.00000000,-2.98118591,-0.13542175,-0.13542175,-0.02441406
1.21742392,575,3.08160590,-2.59702952,2.46040843,-0.02212524,-1.59348392,-0.35667419,-3.13391877,3.74259382,-3.80945311,-0.00206618,-1.58509159,-2.41241455,-3.12452252,-2.90258677,-2.38997658,-0.00228882,-1.57936954,-2.41279602,-0.00976562,0.49316406,-0.80566406,-0.01464844,0.01464844,-0.01464844,-2.98118591,-0.13542175,-0.13542175,0.00000000
1.22779083,580,3.08084296,-2.59702952,2.45811961,-0.02250671,-1.59348392,-0.35667419,-3.13459318,3.74260692,-3.81201116,-0.00203569,-1.58509159,-2.41241455,-3.12452252,-2.89686473,-2.39913185,-0.00228882,-1.57936954,-2.41279602,-0.01464844,0.49804688,-0.78613281,-0.01464844,0.01464844,-0.01464844,-2.98118591,-0.13542175,-0.13580322,-0.02441406
1.23807240,585,3.08084296,-2.59702952,2.45583080,-0.02250671,-1.59348392,-0.35667419,-3.13500363,3.74261121,-3.81432570,-0.00220587,-1.58509159,-2.41241455,-3.12490399,-2.89190562,-2.40828713,-0.00228882,-1.57936954,-2.41279602,-0.02441406,0.45898438,-0.79101562,-0.01464844,0.02929688,-0.01464844,-2.98118591,-0.13542175,-0.13580322,-0.04882812
1.24831367,590,3.08046149,-2.59702952,2.45468639,-0.02250671,-1.59348392,-0.35667419,-3.13536334,3.74261262,-3.81623538,-0.00226164,-1.58509159,-2.41241455,-3.12528546,-2.88809092,-2.41439064,-0.00228882,-1.57936954,-2.41279602,-0.02441406,0.43945312,-0.77636719,-0.01464844,0.01464844,-0.02929688,-2.98118591,-0.13542175,-0.13542175,-0.02441406
1.25858164,595,3.08008002,-2.59702952,2.45316051,-0.02250671,-1.59348392,-0.35667419,-3.13576894,3.74261308,-3.81774786,-0.00227991,-1.58509159,-2.41241455,-3.12528546,-2.88275035,-2.42354592,-0.00228882,-1.57936954,-2.41279602,-0.01953125,0.48828125,-0.79589844,-0.01464844,0.01464844,-0.01464844,-2.98118591,-0.13542175,-0.13542175,-0.02441406
1.26919150,600,3.07969855,-2.59702952,2.45163463,-0.02250671,-1.59348392,-0.35667419,-3.13603917,3.74261323,-3.81922833,-0.00228590,-1.58509159,-2.41241455,-3.12528546,-2.87740977,-2.43270119,-0.00228882,-1.57936954,-2.41279602,-0.01953125,0.47363281,-0.79101562,-0.01464844,0.01464844,-0.01464844,-2.98118591,-0.13524597,-0.13542175,-0.02441406
1.28070068,605,3.07969855,-2.59702952,2.45087169,-0.02250671,-1.59348392,-0.35667419,-3.13624686,3.74261328,-3.82039876,-0.00228786,-1.58509159,-2.41241455,-3.12604840,-2.87168772,-2.44300087,-0.00228882,-1.57936954,-2.41279602,-0.04394531,0.45410156,-0.82031250,-0.02929688,0.01464844,-0.01464844,-2.98118591,-0.13536415,-0.13542175,0.00000000
1.29094863,610,3.07969855,-2.59702952,2.45087169,-0.02250671,-1.59348392,-0.35667419,-3.13631491,3.74261330,-3.82097173,-0.00228850,-1.58509159,-2.41241455,-3.12604840,-2.86787303,-2.44986733,-0.00228882,-1.57936954,-2.41279602,-0.02929688,0.44433594,-0.80566406,-0.02929688,-0.00000000,-0.01464844,-2.98118591,-0.13540288,-0.13542175,0.02441406
1.30121303,615,3.07969855,-2.59702952,2.45087169,-0.02250671,-1.59348392,-0.35667419,-3.13633722,3.74261330,-3.82115949,-0.00228872,-1.58509159,-2.41241455,-3.12642987,-2.86253245,-2.45978554,-0.00228882,-1.57936954,-2.41279602,-0.02441406,0.43945312,-0.81542969,-0.01464844,0.01464844,-0.01464844,-2.98118591,-0.13541557,-0.13542175,0.00000000
1.31166697,620,3.07969855,-2.59702952,2.45087169,-0.02250671,-1.59348392,-0.35667419,-3.13634452,3.74261330,-3.82122101,-0.00228878,-1.58509159,-2.41241455,-3.12642987,-2.85909922,-2.46588906,-0.00228882,-1.57936954,-2.41279602,-0.01953125,0.41992188,-0.80078125,-0.01464844,0.01464844,0.00000000,-2.98118591,-0.13541973,-0.13542175,-0.02441406
1.32187581,625,3.07969855,-2.59702952,2.45125316,-0.02250671,-1.59348392,-0.35667419,-3.13634692,3.74261331,-3.82098470,-0.00228881,-1.58509159,-2.41241455,-3.12642987,-2.85414012,-2.47580727,-0.00267029,-1.57936954,-2.41279602,-0.00976562,0.40039062,-0.79101562,-0.04394531,0.01464844,-0.02929688,-2.98118591,-0.13542109,-0.13542175,-0.02441406
1.33248830,630,3.07969855,-2.59702952,2.45125316,-0.02250671,-1.59348392,-0.35667419,-3.13634770,3.74261331,-3.82090727,-0.00228881,-1.58509159,-2.41241455,-3.12642987,-2.84918101,-2.48458107,-0.00267029,-1.57936954,-2.41279602,-0.00976562,0.42480469,-0.77636719,-0.02929688,-0.00000000,0.00000000,-2.98118591,-0.13542154,-0.13542175,-0.02441406
1.34273052,635,3.07969855,-2.59702952,2.45163463,-0.02250671,-1.59348392,-0.35667419,-3.13634796,3.74261331,-3.82080560,-0.00228882,-1.58509159,-2.41241455,-3.12681134,-2.84612925,-2.49106606,-0.00267029,-1.57936954,-2.41279602,-0.01953125,0.41015625,-0.78125000,-0.01464844,0.01464844,-0.01464844,-2.98118591,-0.13542168,-0.13542175,0.00000000
1.35319519,640,3.07969855,-2.59664805,2.45239757,-0.02250671,-1.59348392,-0.35667419,-3.13634804,3.74286978,-3.82032966,-0.00228882,-1.58509159,-2.41241455,-3.12681134,-2.84155162,-2.50022133,-0.00228882,-1.57936954,-2.41279602,-0.02441406,0.38085938,-0.79101562,0.01464844,-0.00000000,-0.01464844,-2.98118591,-0.13542173,-0.13542175,-0.02441406
1.36390662,645,3.07969855,-2.59664805,2.45354198,-0.02250671,-1.59348392,-0.35667419,-3.13634807,3.74295382,-3.81948437,-0.00228882,-1.58509159,-2.41241455,-3.12719281,-2.83621104,-2.50937661,-0.00228882,-1.57936954,-2.41279602,-0.00976562,0.41992188,-0.80566406,0.00000000,0.02929688,-0.01464844,-2.98118591,-0.13542175,-0.13580322,0.00000000
1.37445641,650,3.07969855,-2.59664805,2.45430492,-0.02250671,-1.59348392,-0.35667419,-3.13634808,3.74298135,-3.81855333,-0.00228882,-1.58509159,-2.41241455,-3.12719281,-2.83315928,-2.51586159,-0.00228882,-1.57936954,-2.41279602,-0.00488281,0.42480469,-0.80566406,-0.01464844,0.01464844,-0.02929688,-2.98118591,-0.13542175,-0.13542175,0.00000000
1.38534594,655,3.07969855,-2.59664805,2.45621227,-0.02250671,-1.59348392,-0.35667419,-3.13634808,3.74299038,-3.81708504,-0.00228882,-1.58509159,-2.41241455,-3.12719281,-2.82820018,-2.52539833,-0.00228882,-1.57936954,-2.41279602,-0.00976562,0.38574219,-0.80566406,0.00000000,0.02929688,0.00000000,-2.98118591,-0.13542175,-0.13542175,-0.04882812
1.39562321,660,3.07969855,-2.59664805,2.45850108,-0.02250671,-1.59348392,-0.35667419,-3.13634808,3.74299333,-3.81525748,-0.00228882,-1.58509159,-2.41241455,-3.12719281,-2.82362254,-2.53493508,-0.00228882,-1.57936954,-2.41279602,-0.00976562,0.36621094,-0.80566406,-0.02929688,0.01464844,-0.01464844,-2.98118591,-0.13542175,-0.13580322,-0.04882812
1.40595746,665,3.07969855,-2.59664805,2.46040843,-0.02250671,-1.59348392,-0.35667419,-3.13634808,3.74299430,-3.81329522,-0.00228882,-1.58509159,-2.41241455,-3.12719281,-2.82057078,-2.54180153,-0.00228882,-1.57936954,-2.41279602,-0.00976562,0.38085938,-0.80078125,-0.01464844,0.01464844,-0.01464844,-2.98118591,-0.13542175,-0.13542175,-0.02441406
1.41619706,670,3.07969855,-2.59664805,2.46307872,-0.02250671,-1.59348392,-0.35667419,-3.13634808,3.74299462,-3.81111817,-0.00228882,-1.58509159,-2.41241455,-3.12719281,-2.81637461,-2.55095681,-0.00228882,-1.57936954,-2.41279602,-0.01464844,0.35156250,-0.78125000,-0.01464844,0.01464844,0.00000000,-2.98118591,-0.13542175,-0.13580322,-0.02441406
1.42642474,675,3.07969855,-2.59664805,2.46574901,-0.02250671,-1.59348392,-0.35667419,-3.13634808,3.74299472,-3.80870862,-0.00228882,-1.58509159,-2.41241455,-3.12757428,-2.81217845,-2.56011208,-0.00228882,-1.57936954,-2.41279602,-0.03417969,0.35156250,-0.78125000,-0.01464844,0.01464844,-0.01464844,-2.98118591,-0.13542175,-0.13542175,-0.04882812
1.43672991,680,3.07969855,-2.59664805,2.46765636,-0.02250671,-1.59348392,-0.35667419,-3.13634808,3.74299476,-3.80618847,-0.00228882,-1.58509159,-2.41241455,-3.12795575,-2.80950816,-2.56621559,-0.00228882,-1.57936954,-2.41279602,-0.02929688,0.32714844,-0.79589844,-0.01464844,0.01464844,-0.01464844,-2.98118591,-0.13542175,-0.13542175,-0.02441406
1.44701123,685,3.07969855,-2.59664805,2.47070812,-0.02250671,-1.59348392,-0.35667419,-3.13634808,3.74299477,-3.80366003,-0.00228882,-1.58509159,-2.41241455,-3.12795575,-2.80531199,-2.57575234,-0.00228882,-1.57936954,-2.41279602,-0.01464844,0.35156250,-0.79101562,0.00000000,0.01464844,-0.01464844,-2.98118591,-0.13542175,-0.13542175,-0.02441406
1.45743370,690,3.07969855,-2.59664805,2.47452281,-0.02250671,-1.59348392,-0.35667419,-3.13634808,3.74299477,-3.80075754,-0.00228882,-1.58509159,-2.41241455,-3.12833722,-2.80111582,-2.58185585,-0.00228882,-1.57936954,-2.41279602,-0.01464844,0.36621094,-0.79589844,0.00000000,0.02929688,-0.01464844,-2.98118591,-0.13542175,-0.13542175,-0.02441406
1.46771598,695,3.07969855,-2.59664805,2.47719310,-0.02250671,-1.59348392,-0.35667419,-3.13634808,3.74299477,-3.79740960,-0.00228882,-1.58509159,-2.41241455,-3.12833722,-2.79806407,-2.59139260,-0.00228882,-1.57975101,-2.41279602,-0.00976562,0.35644531,-0.81054688,0.00000000,-0.00000000,-0.01464844,-2.98118591,-0.13542175,-0.13542175,0.00000000
1.47802877,700,3.07969855,-2.59664805,2.48138927,-0.02250671,-1.59348392,-0.35667419,-3.13634808,3.74299478,-3.79392302,-0.00228882,-1.58509159,-2.41241455,-3.12833722,-2.79424937,-2.60092934,-0.00267029,-1.57936954,-2.41279602,-0.01464844,0.35156250,-0.81542969,-0.04394531,0.01464844,-0.01464844,-2.98118591,-0.13542175,-0.13542175,-0.02441406
1.48840857,705,3.07969855,-2.59664805,2.48444103,-0.02250671,-1.59348392,-0.35667419,-3.13634808,3.74299478,-3.79032839,-0.00228882,-1.58509159,-2.41241455,-3.12833722,-2.79157908,-2.60741433,-0.00228882,-1.57975101,-2.41279602,-0.01464844,0.32714844,-0.81542969,-0.01464844,0.01464844,-0.02929688,-2.98118591,-0.13542175,-0.13542175,-0.04882812
1.49873185,710,3.07969855,-2.59664805,2.48940013,-0.02250671,-1.59348392,-0.35667419,-3.13634808,3.74299478,-3.78628710,-0.00228882,-1.58509159,-2.41241455,-3.12871869,-2.78776438,-2.61695107,-0.00228882,-1.57975101,-2.41279602,-0.01953125,0.34179688,-0.80078125,-0.01464844,0.01464844,-0.01464844,-2.98118591,-0.13542175,-0.13542175,-0.02441406
1.50901389,715,3.07969855,-2.59664805,2.49435924,-0.02250671,-1.59348392,-0.35667419,-3.13634808,3.74299478,-3.78173861,-0.00228882,-1.58509159,-2.41241455,-3.12871869,-2.78394969,-2.62610634,-0.00228882,-1.57975101,-2.41279602,-0.02441406,0.31250000,-0.78613281,-0.01464844,0.01464844,-0.02929688,-2.98118591,-0.13542175,-0.13580322,-0.04882812
1.51925731,720,3.07969855,-2.59664805,2.49779247,-0.02250671,-1.59348392,-0.35667419,-3.13634808,3.74299478,-3.77739061,-0.00228882,-1.58509159,-2.41241455,-3.12871869,-2.78127940,-2.63220986,-0.00228882,-1.57975101,-2.41279602,-0.01953125,0.32226562,-0.79589844,0.00000000,0.01464844,-0.01464844,-2.98118591,-0.13542175,-0.13542175,-0.02441406
1.52956200,725,3.07969855,-2.59664805,2.50351451,-0.02250671,-1.59348392,-0.35667419,-3.13634808,3.74299478,-3.77273844,-0.00228882,-1.58509159,-2.41241455,-3.12910016,-2.77746470,-2.64174660,-0.00228882,-1.57975101,-2.41279602,-0.00488281,0.30761719,-0.77636719,-0.02929688,0.01464844,-0.02929688,-2.98118591,-0.13542175,-0.13580322,-0.02441406
1.53988028,730,3.07969855,-2.59664805,2.50771068,-0.02250671,-1.59348392,-0.35667419,-3.13634808,3.74299478,-3.76801151,-0.00228882,-1.58509159,-2.41241455,-3.12910016,-2.77479441,-2.64823159,-0.00228882,-1.57975101,-2.41279602,-0.00488281,0.32226562,-0.78613281,-0.02929688,0.01464844,-0.02929688,-2.98118591,-0.13542175,-0.13542175,0.00000000
1.55011606,735,3.07969855,-2.59664805,2.51457713,-0.02250671,-1.59348392,-0.35667419,-3.13634808,3.74299478,-3.76247796,-0.00228882,-1.58509159,-2.41241455,-3.12910016,-2.77059825,-2.65814980,-0.00228882,-1.57975101,-2.41241455,-0.00976562,0.32226562,-0.79589844,-0.02929688,0.02929688,-0.01464844,-2.98118591,-0.13542175,-0.13542175,-0.04882812
1.56043315,740,3.07969855,-2.59664805,2.52106212,-0.02250671,-1.59348392,-0.35667419,-3.13634808,3.74299478,-3.75646100,-0.00228882,-1.58509159,-2.41241455,-3.12910016,-2.76678355,-2.66425331,-0.00228882,-1.57975101,-2.41279602,-0.00976562,0.32714844,-0.79589844,-0.01464844,0.01464844,-0.01464844,-2.98118591,-0.13542175,-0.13542175,-0.02441406
1.57069612,745,3.07969855,-2.59664805,2.52563976,-0.02250671,-1.59348392,-0.35667419,-3.13634808,3.74299478,-3.75065489,-0.00228882,-1.58509159,-2.41241455,-3.12910016,-2.76449473,-2.67379006,-0.00228882,-1.57975101,-2.41279602,-0.01464844,0.29785156,-0.80078125,-0.01464844,0.02929688,-0.01464844,-2.98118591,-0.13542175,-0.13542175,-0.02441406
1.58096647,750,3.08008002,-2.59664805,2.53288768,-0.02250671,-1.59348392,-0.35667419,-3.13616193,3.74299478,-3.74448000,-0.00228882,-1.58509159,-2.41241455,-3.12910016,-2.76106150,-2.68332680,-0.00228882,-1.57975101,-2.41279602,-0.01464844,0.30273438,-0.80566406,-0.01464844,0.01464844,-0.01464844,-2.98118591,-0.13542175,-0.13542175,-0.04882812
1.59176207,755,3.08008002,-2.59664805,2.54089855,-0.02250671,-1.59348392,-0.35667419,-3.13603061,3.74299478,-3.73753999,-0.00228882,-1.58509159,-2.41241455,-3.12910016,-2.75762828,-2.69248207,-0.00228882,-1.57975101,-2.41279602,-0.00976562,0.26367188,-0.78613281,-0.01464844,0.02929688,0.01464844,-2.98118591,-0.13542175,-0.13580322,-0.02441406
1.60204005,760,3.08008002,-2.59664805,2.54623912,-0.02250671,-1.59348392,-0.35667419,-3.13598759,3.74299478,-3.73075587,-0.00228882,-1.58509159,-2.41241455,-3.12948163,-2.75533946,-2.69896706,-0.00228882,-1.57975101,-2.41279602,-0.01464844,0.27832031,-0.80078125,-0.01464844,0.01464844,-0.01464844,-2.98118591,-0.13542175,-0.13580322,-0.02441406
1.61227059,765,3.08046149,-2.59664805,2.55424999,-0.02250671,-1.59348392,-0.35667419,-3.13589719,3.74299478,-3.72384768,-0.00228882,-1.58509159,-2.41241455,-3.12948163,-2.75228770,-2.70812233,-0.00228882,-1.57975101,-2.41279602,-0.01464844,0.26367188,-0.77636719,-0.01464844,-0.00000000,0.00000000,-2.98118591,-0.13542175,-0.13580322,-0.02441406
1.62253857,770,3.08046149,-2.59664805,2.56035350,-0.02250671,-1.59348392,-0.35667419,-3.13568740,3.74299478,-3.71693019,-0.00228882,-1.58509159,-2.41241455,-3.12986310,-2.74923594,-2.71727761,-0.00228882,-1.57975101,-2.41279602,-0.01953125,0.26855469,-0.80566406,-0.01464844,0.01464844,0.00000000,-2.98118591,-0.13542175,-0.13542175,-0.02441406
1.63283086,775,3.08122443,-2.59664805,2.56874584,-0.02250671,-1.59348392,-0.35667419,-3.13517602,3.74299478,-3.70957143,-0.00228882,-1.58509159,-2.41241455,-3.12986310,-2.74694712,-2.72338112,-0.00228882,-1.57975101,-2.41279602,-0.01953125,0.27343750,-0.80078125,0.00000000,-0.00000000,-0.01464844,-2.98118591,-0.13542175,-0.13580322,-0.02441406
1.64406276,780,3.08236884,-2.59664805,2.57713817,-0.02250671,-1.59348392,-0.35667419,-3.13441922,3.74299478,-3.70169795,-0.00228882,-1.58509159,-2.41241455,-3.12986310,-2.74389537,-2.73291787,-0.00228882,-1.57975101,-2.41279602,-0.01953125,0.25878906,-0.81054688,-0.02929688,0.01464844,0.00000000,-2.98118591,-0.13542175,-0.13542175,-0.02441406
1.65419030,785,3.08351325,-2.59664805,2.58247875,-0.02250671,-1.59348392,-0.35667419,-3.13348190,3.74299478,-3.69464653,-0.00228882,-1.58509159,-2.41241455,-3.12986310,-2.74046214,-2.74245461,-0.00228882,-1.57975101,-2.41279602,-0.00976562,0.26855469,-0.79101562,-0.01464844,0.01464844,-0.01464844,-2.98118591,-0.13542175,-0.13542175,-0.02441406
1.66451931,790,3.08427619,-2.59664805,2.59048961,-0.02250671,-1.59348392,-0.35667419,-3.13248165,3.74299478,-3.68722350,-0.00228882,-1.58509159,-2.41241455,-3.13024457,-2.73855479,-2.74855812,-0.00228882,-1.57975101,-2.41279602,-0.00976562,0.25390625,-0.80078125,-0.02929688,0.02929688,-0.01464844,-2.98118591,-0.13542175,-0.13580322,-0.04882812
1.67523265,795,3.08618354,-2.59664805,2.59850047,-0.02250671,-1.59348392,-0.35667419,-3.13104195,3.74299478,-3.67983250,-0.00228882,-1.58509159,-2.41241455,-3.13024457,-2.73512156,-2.75847634,-0.00228882,-1.57975101,-2.41279602,-0.01464844,0.27832031,-0.79101562,0.00000000,-0.00000000,-0.01464844,-2.98118591,-0.13542175,-0.13580322,-0.02441406
1.68564701,800,3.08770941,-2.59664805,2.60384105,-0.02250671,-1.59348392,-0.35667419,-3.12952429,3.74299478,-3.67311936,-0.00228882,-1.58509159,-2.41241455,-3.13024457,-2.73206980,-2.76801308,-0.00228882,-1.57975101,-2.41279602,-0.01464844,0.24902344,-0.81542969,-0.01464844,0.01464844,-0.02929688,-2.98118591,-0.13542175,-0.13542175,-0.02441406
1.69665313,805,3.08923529,-2.59664805,2.61223338,-0.02250671,-1.59348392,-0.35667419,-3.12802112,3.74299478,-3.66604826,-0.00228882,-1.58509159,-2.41241455,-3.13024457,-2.73016246,-2.77411660,-0.00267029,-1.57975101,-2.41279602,-0.01953125,0.24414062,-0.79589844,0.00000000,0.01464844,0.00000000,-2.98118591,-0.13542175,-0.13542175,0.00000000
1.70670581,810,3.09076117,-2.59664805,2.62062572,-0.02250671,-1.59348392,-0.35667419,-3.12643237,3.74299478,-3.65801855,-0.00228882,-1.58509159,-2.41241455,-3.13062604,-2.72749217,-2.78327187,-0.00228882,-1.57975101,-2.41279602,-0.01464844,0.24902344,-0.80078125,-0.01464844,0.01464844,0.00000000,-2.98118591,-0.13542175,-0.13542175,0.00000000
1.71697235,815,3.09228705,-2.59664805,2.62634776,-0.02250671,-1.59348392,-0.35667419,-3.12493618,3.74299478,-3.65087090,-0.00228882,-1.58509159,-2.41241455,-3.13062604,-2.72482188,-2.79242714,-0.00228882,-1.57975101,-2.41279602,-0.00976562,0.21484375,-0.77148438,-0.02929688,0.01464844,0.00000000,-2.98118591,-0.13542175,-0.13542175,-0.02441406
1.72751737,820,3.09419440,-2.59664805,2.63474010,-0.02250671,-1.59348392,-0.35667419,-3.12324169,3.74299478,-3.64319892,-0.00228882,-1.58509159,-2.41241455,-3.13062604,-2.72291453,-2.79853066,-0.00228882,-1.57975101,-2.41279602,-0.00976562,0.23925781,-0.78125000,-0.02929688,0.01464844,-0.02929688,-2.98118591,-0.13542175,-0.13580322,-0.02441406
1.73793507,825,3.09610175,-2.59664805,2.64351390,-0.02250671,-1.59348392,-0.35667419,-3.12152616,3.74299478,-3.63521341,-0.00228882,-1.58509159,-2.41241455,-3.13062604,-2.71948130,-2.80844887,-0.00228882,-1.57975101,-2.41279602,-0.00976562,0.24902344,-0.78125000,-0.02929688,0.01464844,-0.01464844,-2.98118591,-0.13542175,-0.13542175,-0.02441406
1.74871588,830,3.09762763,-2.59664805,2.65190624,-0.02250671,-1.59348392,-0.35667419,-3.11978921,3.74299478,-3.62713407,-0.00228882,-1.58509159,-2.41241455,-3.13062604,-2.71642955,-2.81798561,-0.00228882,-1.57975101,-2.41279602,-0.00488281,0.26367188,-0.81054688,-0.02929688,0.01464844,0.00000000,-2.98118591,-0.13542175,-0.13542175,-0.02441406
1.75897980,835,3.09877204,-2.59664805,2.65762828,-0.02250671,-1.59348392,-0.35667419,-3.11828023,3.74299478,-3.61980804,-0.00228882,-1.58509159,-2.41241455,-3.13062604,-2.71452220,-2.82447060,-0.00228882,-1.57975101,-2.41279602,-0.00488281,0.25878906,-0.79589844,-0.01464844,-0.00000000,-0.02929688,-2.98118591,-0.13542175,-0.13542175,-0.02441406
1.76994205,840,3.10067939,-2.59664805,2.66602062,-0.02250671,-1.59348392,-0.35667419,-3.11675244,3.74299478,-3.61252684,-0.00228882,-1.58509159,-2.41241455,-3.13062604,-2.71185191,-2.83362587,-0.00228882,-1.57975101,-2.41279602,-0.00488281,0.21484375,-0.81542969,-0.04394531,0.01464844,-0.01464844,-2.98118591,-0.13542175,-0.13580322,-0.02441406
1.78036499,845,3.10182379,-2.59664805,2.67250560,-0.02250671,-1.59348392,-0.35667419,-3.11523338,3.74299478,-3.60508173,-0.00228882,-1.58509159,-2.41241455,-3.13062604,-2.70918162,-2.84316262,-0.00228882,-1.57975101,-2.41279602,0.00000000,0.22949219,-0.79589844,-0.01464844,0.01464844,-0.02929688,-2.98118591,-0.13542175,-0.13542175,-0.02441406
1.79137564,850,3.10334967,-2.59664805,2.68166087,-0.02250671,-1.59348392,-0.35667419,-3.11377077,3.74299478,-3.59754641,-0.00228882,-1.58509159,-2.41241455,-3.13062604,-2.70689280,-2.85193642,-0.00228882,-1.57975101,-2.41279602,0.00000000,0.20996094,-0.80078125,-0.01464844,0.01464844,0.00000000,-2.98118591,-0.13542175,-0.13542175,-0.02441406
1.80224252,855,3.10411261,-2.59664805,2.68776439,-0.02250671,-1.59348392,-0.35667419,-3.11265503,3.74299478,-3.58988290,-0.00228882,-1.58509159,-2.41241455,-3.13062604,-2.70498545,-2.85842141,-0.00228882,-1.57975101,-2.41279602,0.00488281,0.20507812,-0.78125000,-0.01464844,0.01464844,0.00000000,-2.98118591,-0.13542175,-0.13580322,-0.04882812
1.81257725,860,3.10601996,-2.59664805,2.69730113,-0.02250671,-1.59348392,-0.35667419,-3.11131860,3.74299478,-3.58190139,-0.00228882,-1.58509159,-2.41241455,-3.13024457,-2.70231517,-2.86833962,-0.00228882,-1.57975101,-2.41279602,0.00488281,0.22949219,-0.80078125,0.00000000,-0.00000000,-0.01464844,-2.98118591,-0.13542175,-0.13542175,-0.02441406
1.82289600,865,3.10678290,-2.59664805,2.70378612,-0.02250671,-1.59348392,-0.35667419,-3.11003863,3.74299478,-3.57362524,-0.00228882,-1.58509159,-2.41241455,-3.13024457,-2.69964488,-2.87787636,-0.00228882,-1.57975101,-2.41279602,0.00488281,0.20996094,-0.79589844,-0.01464844,0.01464844,0.00000000,-2.98118591,-0.13542175,-0.13580322,-0.02441406
1.83314228,870,3.10792731,-2.59664805,2.71332286,-0.02250671,-1.59348392,-0.35667419,-3.10889863,3.74299478,-3.56498008,-0.00228882,-1.58509159,-2.41241455,-3.13024457,-2.69811900,-2.88436135,-0.00228882,-1.57975101,-2.41279602,0.00976562,0.21484375,-0.81054688,-0.02929688,0.01464844,-0.01464844,-2.98118591,-0.13542175,-0.13542175,-0.02441406
1.84343600,875,3.10869025,-2.59664805,2.72362254,-0.02250671,-1.59348392,-0.35667419,-3.10793206,3.74299478,-3.55633486,-0.00228882,-1.58509159,-2.41241455,-3.12986310,-2.69544871,-2.89351662,-0.00228882,-1.57975101,-2.41279602,0.02441406,0.20019531,-0.80566406,-0.01464844,0.01464844,0.00000000,-2.98118591,-0.13542175,-0.13542175,-0.02441406
1.85374546,880,3.10907172,-2.59664805,2.73010753,-0.02250671,-1.59348392,-0.35667419,-3.10731980,3.74299478,-3.54802970,-0.00220093,-1.58509159,-2.41241455,-3.12948163,-2.69315989,-2.90305336,-0.00267029,-1.57975101,-2.41279602,0.01464844,0.19531250,-0.80078125,-0.02929688,0.01464844,0.00000000,-2.98118591,-0.13542175,-0.13542175,-0.02441406
1.86403060,885,3.10945319,-2.59664805,2.73964427,-0.02250671,-1.59348392,-0.35667419,-3.10683146,3.74299478,-3.53916020,-0.00226002,-1.58509159,-2.41241455,-3.12910016,-2.69163401,-2.90915688,-0.00267029,-1.57975101,-2.41279602,0.03906250,0.17578125,-0.79101562,-0.01464844,0.01464844,-0.01464844,-2.98118591,-0.13542175,-0.13542175,0.00000000
1.87426043,890,3.10983466,-2.59664805,2.74918102,-0.02250671,-1.59348392,-0.35667419,-3.10641497,3.74299478,-3.53026006,-0.00227938,-1.58509159,-2.41241455,-3.12910016,-2.68934519,-2.91869362,-0.00267029,-1.57975101,-2.41279602,0.01953125,0.19531250,-0.80078125,-0.01464844,-0.00000000,-0.01464844,-2.98118591,-0.13542175,-0.13580322,-0.04882812
1.88466787,895,3.11021613,-2.59664805,2.75528453,-0.02250671,-1.59348392,-0.35667419,-3.10614116,3.74299478,-3.52243937,-0.00228573,-1.58509159,-2.41241455,-3.12871869,-2.68705638,-2.92479714,-0.00267029,-1.57975101,-2.41279602,0.01464844,0.20019531,-0.79589844,0.00000000,0.02929688,-0.01464844,-2.98118591,-0.13542175,-0.13580322,-0.04882812
1.89552116,900,3.11021613,-2.59664805,2.76482128,-0.02250671,-1.59348392,-0.35667419,-3.10593230,3.74299478,-3.51384775,-0.00228781,-1.58509159,-2.41241455,-3.12833722,-2.68553050,-2.93433388,-0.00267029,-1.57975101,-2.41279602,0.01464844,0.19042969,-0.80566406,0.00000000,0.01464844,0.00000000,-2.98118591,-0.13542175,-0.13580322,-0.02441406
1.90671301,905,3.11021613,-2.59664805,2.77473949,-0.02250671,-1.59348392,-0.35667419,-3.10586386,3.74299478,-3.50503270,-0.00228849,-1.58509159,-2.41241455,-3.12795575,-2.68324168,-2.94348915,-0.00228882,-1.57975101,-2.41279602,0.04882812,0.20019531,-0.78613281,-0.01464844,0.01464844,0.00000000,-2.98118591,-0.13542175,-0.13542175,-0.02441406
1.92014360,910,3.11021613,-2.59664805,2.78465770,-0.02250671,-1.59348392,-0.35667419,-3.10584144,3.74299478,-3.49552821,-0.00228871,-1.58509159,-2.41241455,-3.12757428,-2.68095286,-2.95302590,-0.00228882,-1.57975101,-2.41279602,0.01953125,0.17089844,-0.77148438,0.00000000,0.01464844,0.00000000,-2.98118591,-0.13542175,-0.13542175,-0.02441406
1.93089938,915,3.11021613,-2.59664805,2.79343150,-0.02250671,-1.59348392,-0.35667419,-3.10583409,3.74299478,-3.48598178,-0.00228878,-1.58509159,-2.41241455,-3.12719281,-2.67904551,-2.96179970,-0.00228882,-1.57975101,-2.41279602,0.03417969,0.17089844,-0.74218750,-0.01464844,-0.00000000,0.00000000,-2.98118591,-0.13542175,-0.13580322,-0.04882812
1.94179845,920,3.11021613,-2.59664805,2.80334972,-0.02250671,-1.59348392,-0.35667419,-3.10583168,3.74299478,-3.47611703,-0.00221849,-1.58509159,-2.41241455,-3.12681134,-2.67675669,-2.97019204,-0.00228882,-1.57975101,-2.41279602,0.02441406,0.17578125,-0.70800781,-0.01464844,0.02929688,-0.01464844,-2.98118591,-0.13542175,-0.13542175,0.00000000
1.95284581,925,3.11021613,-2.59664805,2.81403087,-0.02250671,-1.59348392,-0.35667419,-3.10583089,3.74299478,-3.46577371,-0.00226577,-1.58509159,-2.41241455,-3.12681134,-2.67484935,-2.97820290,-0.00228882,-1.57975101,-2.41279602,0.01464844,0.17089844,-0.68359375,-0.01464844,0.01464844,0.00000000,-2.98118591,-0.13542175,-0.13542175,-0.02441406
1.96386409,930,3.11021613,-2.59664805,2.82471202,-0.02250671,-1.59348392,-0.35667419,-3.10583063,3.74299478,-3.45575257,-0.00228127,-1.58509159,-2.41241455,-3.12642987,-2.67332347,-2.98354348,-0.00228882,-1.57975101,-2.41279602,0.01953125,0.16113281,-0.67382812,-0.01464844,0.01464844,-0.01464844,-2.98118591,-0.13542175,-0.13580322,-0.02441406
1.97488618,935,3.11021613,-2.59664805,2.83234142,-0.02250671,-1.59348392,-0.35667419,-3.10583055,3.74299478,-3.44651865,-0.00228634,-1.58509159,-2.41241455,-3.12604840,-2.67103465,-2.99117287,-0.00228882,-1.58013248,-2.41279602,0.03417969,0.18554688,-0.64453125,0.00000000,0.01464844,-0.01464844,-2.98118591,-0.13542175,-0.13580322,-0.04882812
1.98479366,940,3.11021613,-2.59664805,2.84531139,-0.02250671,-1.59348392,-0.35667419,-3.10583052,3.74299478,-3.43609469,-0.00228801,-1.58509159,-2.41241455,-3.12604840,-2.66912730,-2.99918373,-0.00228882,-1.58013248,-2.41279602,0.00976562,0.17089844,-0.62500000,-0.01464844,0.01464844,-0.01464844,-2.98118591,-0.13542175,-0.13580322,-0.02441406
1.99529004,945,3.11021613,-2.59664805,2.85675548,-0.02250671,-1.59348392,-0.35667419,-3.10583051,3.74299478,-3.42546485,-0.00228855,-1.58509159,-2.41241455,-3.12566693,-2.66683848,-3.00605019,-0.00228882,-1.58013248,-2.41279602,0.00976562,0.17089844,-0.59082031,-0.01464844,0.01464844,-0.01464844,-2.98118591,-0.13542175,-0.13580322,-0.02441406
2.00555491,950,3.11021613,-2.59664805,2.86514781,-0.02250671,-1.59348392,-0.35667419,-3.10583051,3.74299478,-3.41468797,-0.00228873,-1.58509159,-2.41241455,-3.12528546,-2.66569407,-3.01062783,-0.00267029,-1.58013248,-2.41279602,0.02441406,0.17089844,-0.58105469,-0.02929688,0.01464844,-0.02929688,-2.98118591,-0.13542175,-0.13580322,-0.02441406
2.01580596,955,3.10983466,-2.59664805,2.87735484,-0.02250671,-1.59348392,-0.35667419,-3.10590680,3.74299478,-3.40405064,-0.00228879,-1.58509159,-2.41241455,-3.12490399,-2.66378672,-3.01711281,-0.00267029,-1.58013248,-2.41279602,0.03417969,0.15625000,-0.55175781,-0.02929688,0.01464844,-0.01464844,-2.98118591,-0.13542175,-0.13580322,-0.02441406
2.02624869,960,3.10983466,-2.59702952,2.88651012,-0.02250671,-1.59348392,-0.35667419,-3.10611198,3.74276956,-3.39337115,-0.00228881,-1.58509159,-2.41241455,-3.12490399,-2.66226084,-3.02169045,-0.00267029,-1.58013248,-2.41279602,0.01464844,0.13671875,-0.52246094,-0.01464844,0.01464844,-0.01464844,-2.98156738,-0.13569641,-0.13580322,-0.02441406
2.03672862,965,3.10983466,-2.59702952,2.89948009,-0.02250671,-1.59348392,-0.35667419,-3.10617921,3.74266451,-3.38219030,-0.00228882,-1.58509159,-2.41241455,-3.12452252,-2.66073497,-3.02779396,-0.00267029,-1.58013248,-2.41279602,0.01464844,0.13183594,-0.50292969,-0.01464844,0.02929688,-0.02929688,-2.98118591,-0.13551175,-0.13580322,-0.02441406
2.04744673,970,3.10907172,-2.59702952,2.91245006,-0.02250671,-1.59348392,-0.35667419,-3.10653400,3.74263008,-3.36980659,-0.00228882,-1.58509159,-2.41241455,-3.12414105,-2.65882762,-3.03351601,-0.00228882,-1.58013248,-2.41279602,0.03417969,0.16113281,-0.47851562,0.00000000,0.01464844,0.00000000,-2.98118591,-0.13545124,-0.13580322,0.00000000
2.05767250,975,3.10907172,-2.59702952,2.92160533,-0.02250671,-1.59348392,-0.35667419,-3.10683044,3.74261880,-3.35855485,-0.00228882,-1.58509159,-2.41241455,-3.12414105,-2.65768321,-3.03733071,-0.00228882,-1.58013248,-2.41279602,0.01953125,0.14648438,-0.47851562,-0.01464844,0.01464844,-0.02929688,-2.98118591,-0.13543142,-0.13542175,-0.02441406
2.06793332,980,3.10830878,-2.59741099,2.93533824,-0.02250671,-1.59348392,-0.35667419,-3.10732137,3.74253881,-3.34692403,-0.00228882,-1.58509159,-2.41241455,-3.12375958,-2.65577586,-3.04305275,-0.00267029,-1.58013248,-2.41279602,0.02441406,0.15625000,-0.44921875,-0.02929688,0.02929688,-0.01464844,-2.98118591,-0.13542492,-0.13580322,-0.02441406
2.07819867,985,3.10830878,-2.59741099,2.94525646,-0.02250671,-1.59348392,-0.35667419,-3.10760138,3.74233243,-3.33530596,-0.00228882,-1.58509159,-2.41241455,-3.12337811,-2.65424998,-3.04648598,-0.00228882,-1.58013248,-2.41279602,0.01953125,0.15136719,-0.43457031,-0.01464844,0.01464844,-0.01464844,-2.98118591,-0.13542279,-0.13580322,-0.02441406
2.08852386,990,3.10792731,-2.59779246,2.95898937,-0.02250671,-1.59348392,-0.35667419,-3.10791836,3.74207864,-3.32267229,-0.00228882,-1.58509159,-2.41241455,-3.12299664,-2.65272410,-3.05144509,-0.00228882,-1.58013248,-2.41279602,0.02441406,0.13671875,-0.41503906,0.00000000,0.01464844,-0.01464844,-2.98118591,-0.13542209,-0.13580322,-0.02441406
2.09877658,995,3.10792731,-2.59855540,2.97310375,-0.02250671,-1.59348392,-0.35667419,-3.10805347,3.74159240,-3.30984584,-0.00228882,-1.58509159,-2.41241455,-3.12299664,-2.65119822,-3.05449684,-0.00228882,-1.58013248,-2.41279602,0.01953125,0.15625000,-0.38574219,0.00000000,0.01464844,-0.01464844,-2.98118591,-0.13542186,-0.13580322,-0.02441406
2.10907292,1000,3.10792731,-2.59893687,2.98264049,-0.02250671,-1.59348392,-0.35667419,-3.10809775,3.74102768,-3.29799089,-0.00228882,-1.58509159,-2.41241455,-3.12261517,-2.64929087,-3.05907448,-0.00228882,-1.58013248,-2.41279602,0.02929688,0.15625000,-0.36621094,-0.01464844,0.01464844,-0.01464844,-2.98118591,-0.13542179,-0.13542175,-0.02441406
2.11992955,1005,3.10792731,-2.59931834,2.99789928,-0.02250671,-1.59348392,-0.35667419,-3.10811225,3.74055491,-3.28544806,-0.00228882,-1.58509159,-2.41241455,-3.12223370,-2.64776499,-3.06288918,-0.00228882,-1.58013248,-2.41279602,0.00976562,0.14648438,-0.33203125,-0.01464844,0.01464844,-0.02929688,-2.98080444,-0.13526918,-0.13542175,-0.02441406
2.13062286,1010,3.10792731,-2.60046275,3.01315807,-0.02250671,-1.59348392,-0.35667419,-3.10811701,3.73988107,-3.27148549,-0.00228882,-1.58509159,-2.41241455,-3.12223370,-2.64700206,-3.06555947,-0.00228882,-1.58013248,-2.41279602,0.00488281,0.11230469,-0.30273438,-0.02929688,0.01464844,-0.02929688,-2.98118591,-0.13530926,-0.13542175,-0.02441406
2.14093399,1015,3.10792731,-2.60122569,3.02345775,-0.02250671,-1.59348392,-0.35667419,-3.10811857,3.73904723,-3.25821699,-0.00228882,-1.58509159,-2.41241455,-3.12223370,-2.64509471,-3.06899269,-0.00228882,-1.58013248,-2.41279602,0.00488281,0.12207031,-0.27832031,-0.01464844,0.01464844,-0.01464844,-2.98118591,-0.13538489,-0.13580322,-0.02441406
2.15230441,1020,3.10792731,-2.60198863,3.04062389,-0.02250671,-1.59348392,-0.35667419,-3.10811908,3.73814192,-3.24297647,-0.00228882,-1.58509159,-2.41241455,-3.12185223,-2.64356883,-3.07166298,-0.00228882,-1.58013248,-2.41279602,0.01464844,0.12695312,-0.22949219,-0.01464844,0.02929688,-0.01464844,-2.98118591,-0.13540967,-0.13542175,-0.02441406
2.16284108,1025,3.10792731,-2.60313304,3.05740856,-0.02250671,-1.59348392,-0.35667419,-3.10811924,3.73729509,-3.22773246,-0.00228882,-1.58509159,-2.41241455,-3.12185223,-2.64204295,-3.07471474,-0.00228882,-1.58013248,-2.41279602,0.01953125,0.13183594,-0.24902344,-0.01464844,0.01464844,-0.02929688,-2.98118591,-0.13541779,-0.13580322,-0.02441406
2.17388368,1030,3.10792731,-2.60504039,3.07457469,-0.02250671,-1.59348392,-0.35667419,-3.10811930,3.73591543,-3.21101599,-0.00228882,-1.58509159,-2.41241455,-3.12147077,-2.64089854,-3.07624062,-0.00267029,-1.58013248,-2.41279602,0.00976562,0.12695312,-0.22460938,-0.04394531,0.02929688,-0.02929688,-2.98118591,-0.13542046,-0.13542175,-0.04882812
2.18483353,1035,3.10792731,-2.60694773,3.09174083,-0.02250671,-1.59348392,-0.35667419,-3.10811932,3.73429233,-3.19537854,-0.00228882,-1.58509159,-2.41241455,-3.12147077,-2.63937266,-3.07891091,-0.00267029,-1.58013248,-2.41279602,0.00976562,0.12695312,-0.20019531,-0.02929688,0.01464844,-0.01464844,-2.98118591,-0.13542133,-0.13580322,-0.02441406
2.19553590,1040,3.10792731,-2.60771067,3.10356639,-0.02250671,-1.59348392,-0.35667419,-3.10811932,3.73285593,-3.17972041,-0.00228882,-1.58509159,-2.41241455,-3.12147077,-2.63784678,-3.08119973,-0.00267029,-1.58013248,-2.41279602,0.00000000,0.11718750,-0.18066406,-0.01464844,0.02929688,0.00000000,-2.98118591,-0.13542161,-0.13542175,-0.02441406
2.20595169,1045,3.10792731,-2.60923655,3.12225841,-0.02250671,-1.59348392,-0.35667419,-3.10811932,3.73145946,-3.16383552,-0.00228882,-1.58509159,-2.41241455,-3.12108930,-2.63632090,-3.08310707,-0.00228882,-1.58013248,-2.41279602,0.00000000,0.10742188,-0.14648438,0.00000000,0.01464844,0.00000000,-2.98118591,-0.13542171,-0.13580322,-0.04882812
2.21644330,1050,3.10792731,-2.61152537,3.14095043,-0.02250671,-1.59348392,-0.35667419,-3.10811932,3.72977604,-3.14731139,-0.00228882,-1.58509159,-2.41241455,-3.12108930,-2.63517649,-3.08425148,-0.00228882,-1.58013248,-2.41279602,0.00976562,0.12695312,-0.14648438,-0.02929688,0.01464844,-0.01464844,-2.98118591,-0.13542174,-0.13580322,-0.02441406
2.22670674,1055,3.10792731,-2.61305125,-3.12964638,-0.02250671,-1.59348392,-0.35667419,-3.10811932,3.72793584,-3.13043473,-0.00228882,-1.58509159,-2.41241455,-3.12070783,-2.63403208,-3.08539589,-0.00267029,-1.58013248,-2.41279602,0.02441406,0.08300781,-0.11230469,-0.01464844,-0.00000000,-0.01464844,-2.98118591,-0.13542175,-0.13580322,0.00000000
2.23704362,1060,3.10792731,-2.61495860,-3.11095436,-0.02250671,-1.59348392,-0.35667419,-3.10811932,3.72607052,-3.11408806,-0.00228882,-1.58509159,-2.41241455,-3.12070783,-2.63288768,-3.08615883,-0.00267029,-1.58013248,-2.41279602,0.01953125,0.12695312,-0.07324219,-0.01464844,0.01464844,-0.01464844,-2.98118591,-0.13542175,-0.13580322,0.00000000
2.24771047,1065,3.10792731,-2.61686595,-3.09722145,-0.02250671,-1.59348392,-0.35667419,-3.10811932,3.72418817,-3.09792982,-0.00228882,-1.58509159,-2.41241455,-3.12032636,-2.63212474,-3.08654030,-0.00228882,-1.58013248,-2.41279602,0.00976562,0.09277344,-0.04882812,0.00000000,0.02929688,-0.01464844,-2.98118591,-0.13542175,-0.13580322,-0.02441406
2.25809193,1070,3.10792731,-2.61953623,-3.07624062,-0.02250671,-1.59348392,-0.35667419,-3.10811932,3.72204707,-3.08048922,-0.00228882,-1.58509159,-2.41241455,-3.12032636,-2.63098033,-3.08692177,-0.00267029,-1.58013248,-2.41279602,0.00976562,0.06835938,-0.02929688,-0.02929688,0.02929688,-0.01464844,-2.98118591,-0.13542175,-0.13542175,0.00000000
2.26846719,1075,3.10792731,-2.62182505,-3.06288918,-0.02250671,-1.59348392,-0.35667419,-3.10811932,3.71976711,-3.06320405,-0.00228882,-1.58509159,-2.41241455,-3.11994489,-2.62983592,-3.08730324,-0.00228882,-1.58013248,-2.41279602,0.00976562,0.08789062,-0.00976562,-0.01464844,-0.00000000,-0.02929688,-2.98118591,-0.13542175,-0.13580322,-0.02441406
2.27873111,1080,3.10792731,-2.62373240,-3.04343422,-0.02250671,-1.59348392,-0.35667419,-3.10811932,3.71759410,-3.04511077,-0.00228882,-1.58509159,-2.41241455,-3.11994489,-2.62907298,-3.08730324,-0.00228882,-1.58013248,-2.41279602,0.01464844,0.06835938,-0.00488281,0.00000000,0.01464844,-0.01464844,-2.98080444,-0.13514709,-0.13580322,-0.02441406
2.28898859,1085,3.10792731,-2.62640269,-3.02359780,-0.02250671,-1.59348392,-0.35667419,-3.10811932,3.71523813,-3.02753816,-0.00228882,-1.58509159,-2.41241455,-3.11956342,-2.62831004,-3.08730324,-0.00228882,-1.58013248,-2.41279602,0.01464844,0.08300781,0.00976562,-0.01464844,0.01464844,-0.01464844,-2.98118591,-0.13533175,-0.13542175,0.00000000
2.29925251,1090,3.10792731,-2.62831004,-3.00948342,-0.02250671,-1.59348392,-0.35667419,-3.10811932,3.71294452,-3.01061236,-0.00228882,-1.58509159,-2.41241455,-3.11956342,-2.62754710,-3.08692177,-0.00228882,-1.58013248,-2.41279602,0.01464844,0.08789062,0.03417969,-0.01464844,0.01464844,-0.02929688,-2.98118591,-0.13539226,-0.13580322,-0.02441406
2.30953860,1095,3.10792731,-2.63059886,-2.98964699,-0.02250671,-1.59348392,-0.35667419,-3.10811932,3.71082308,-2.99333760,-0.00228882,-1.58509159,-2.41241455,-3.11956342,-2.62678416,-3.08615883,-0.00228882,-1.57975101,-2.41279602,0.00000000,0.08300781,0.06347656,-0.01464844,0.01464844,0.00000000,-2.98118591,-0.13541209,-0.13580322,-0.04882812
2.32005906,1100,3.10792731,-2.63326915,-2.96981057,-0.02250671,-1.59348392,-0.35667419,-3.10811932,3.70851281,-2.97459643,-0.00228882,-1.58509159,-2.41241455,-3.11956342,-2.62602122,-3.08539589,-0.00228882,-1.58013248,-2.41279602,0.00000000,0.08300781,0.10253906,-0.01464844,0.01464844,-0.01464844,-2.98118591,-0.13541859,-0.13580322,-0.02441406
2.33065248,1105,3.10792731,-2.63555796,-2.95645912,-0.02250671,-1.59348392,-0.35667419,-3.10811932,3.70598699,-2.95764052,-0.00228882,-1.58509159,-2.41241455,-3.11918195,-2.62525828,-3.08425148,-0.00228882,-1.58013248,-2.41279602,0.00000000,0.03417969,0.11718750,-0.01464844,0.02929688,0.00000000,-2.98118591,-0.13542072,-0.13580322,-0.02441406
2.34139514,1110,3.10792731,-2.63784678,-2.93547829,-0.02250671,-1.59348392,-0.35667419,-3.10811932,3.70354824,-2.93893834,-0.00228882,-1.58509159,-2.41241455,-3.11918195,-2.62449534,-3.08234413,-0.00228882,-1.58013248,-2.41279602,0.00976562,0.08300781,0.15625000,-0.01464844,0.01464844,0.00000000,-2.98118591,-0.13542141,-0.13542175,-0.02441406
2.35177350,1115,3.10792731,-2.64051707,-2.91564186,-0.02250671,-1.59348392,-0.35667419,-3.10811932,3.70131857,-2.92088235,-0.00228882,-1.58509159,-2.41241455,-3.11880048,-2.62411387,-3.08081826,-0.00228882,-1.58013248,-2.41279602,0.01464844,0.04882812,0.19042969,0.00000000,0.01464844,-0.01464844,-2.98118591,-0.13542164,-0.13580322,-0.02441406
2.36311984,1120,3.10792731,-2.64318736,-2.89618691,-0.02250671,-1.59348392,-0.35667419,-3.10811932,3.69882928,-2.90279533,-0.00228882,-1.58509159,-2.41241455,-3.11880048,-2.62373240,-3.07852944,-0.00267029,-1.58013248,-2.41279602,0.00976562,0.03417969,0.19042969,-0.01464844,0.01464844,0.01464844,-2.98118591,-0.13542172,-0.13580322,-0.04882812
2.37432957,1125,3.10792731,-2.64547618,-2.88283547,-0.02250671,-1.59348392,-0.35667419,-3.10811932,3.69614567,-2.88470397,-0.00228882,-1.58509159,-2.41241455,-3.11841901,-2.62258799,-3.07585915,-0.00267029,-1.58013248,-2.41279602,0.01464844,0.08789062,0.22949219,-0.01464844,0.01464844,0.00000000,-2.98118591,-0.13542174,-0.13542175,0.00000000
2.38462138,1130,3.10792731,-2.64814646,-2.86261757,-0.02250671,-1.59348392,-0.35667419,-3.10811932,3.69346907,-2.86597700,-0.00228882,-1.58498172,-2.41241455,-3.11841901,-2.62182505,-3.07318886,-0.00267029,-1.58013248,-2.41279602,0.00488281,0.03906250,0.23437500,0.00000000,0.01464844,-0.01464844,-2.98118591,-0.13542175,-0.13542175,0.00000000
2.39503598,1135,3.10792731,-2.65081675,-2.84278115,-0.02250671,-1.59348392,-0.35667419,-3.10811932,3.69098128,-2.84797012,-0.00228882,-1.58505559,-2.41241455,-3.11841901,-2.62144358,-3.07090004,-0.00267029,-1.58013248,-2.41279602,0.00976562,0.03906250,0.25878906,-0.02929688,0.02929688,-0.01464844,-2.98118591,-0.13542175,-0.13580322,-0.02441406
2.40546131,1140,3.10792731,-2.65310557,-2.83019265,-0.02250671,-1.59348392,-0.35667419,-3.10811932,3.68844465,-2.83110574,-0.00228882,-1.58507979,-2.41241455,-3.11803754,-2.62068064,-3.06746682,-0.00267029,-1.58013248,-2.41279602,0.01464844,0.06347656,0.28808594,-0.01464844,-0.00000000,-0.02929688,-2.98118591,-0.13542175,-0.13580322,-0.02441406
2.41560626,1145,3.10830878,-2.65615733,-2.81302651,-0.02250671,-1.59348392,-0.35667419,-3.10798200,3.68570621,-2.81487031,-0.00228882,-1.58508772,-2.41241455,-3.11803754,-2.62029917,-3.06479653,-0.00267029,-1.57975101,-2.41279602,0.01464844,0.05371094,0.30761719,-0.01464844,0.01464844,-0.01464844,-2.98118591,-0.13542175,-0.13542175,0.00000000
2.42615032,1150,3.10830878,-2.65997203,-2.79319008,-0.02250671,-1.59310245,-0.35667419,-3.10781786,3.68228276,-2.79683566,-0.00228882,-1.58501402,-2.41241455,-3.11765607,-2.61991770,-3.06098183,-0.00228882,-1.58013248,-2.41279602,0.01464844,0.02929688,0.32714844,-0.01464844,0.01464844,-0.01464844,-2.98118591,-0.13542175,-0.13580322,-0.04882812
2.43680239,1155,3.10830878,-2.66340525,-2.77259072,-0.02250671,-1.59310245,-0.35667419,-3.10776407,3.67906368,-2.77841448,-0.00228882,-1.58480970,-2.41241455,-3.11765607,-2.61915477,-3.05716713,-0.00267029,-1.58013248,-2.41279602,0.00488281,0.04394531,0.35156250,-0.01464844,0.01464844,-0.01464844,-2.98118591,-0.13542175,-0.13542175,0.00000000
2.44793987,1160,3.10830878,-2.66569407,-2.75962075,-0.02250671,-1.59310245,-0.35667419,-3.10774645,3.67607598,-2.76089809,-0.00228882,-1.58483064,-2.41241455,-3.11765607,-2.61915477,-3.05411537,-0.00228882,-1.57975101,-2.41279602,0.00000000,0.02929688,0.36621094,0.00000000,0.01464844,-0.02929688,-2.98118591,-0.13542175,-0.13580322,-0.02441406
2.45865464,1165,3.10830878,-2.67065318,-2.73902138,-0.02250671,-1.59310245,-0.35667419,-3.10774067,3.67231365,-2.74301062,-0.00228882,-1.58474961,-2.41241455,-3.11727460,-2.61839183,-3.04953774,-0.00228882,-1.57975101,-2.41279602,0.00488281,0.03417969,0.39062500,-0.01464844,0.01464844,-0.01464844,-2.98118591,-0.13542175,-0.13580322,-0.04882812
2.46890402,1170,3.10830878,-2.67484935,-2.71956642,-0.02250671,-1.59310245,-0.35667419,-3.10773878,3.66825964,-2.72426105,-0.00228882,-1.58472306,-2.41241455,-3.11727460,-2.61839183,-3.04496010,-0.00228882,-1.57975101,-2.41279602,0.00488281,0.00488281,0.41015625,-0.01464844,0.02929688,-0.02929688,-2.98118591,-0.13542175,-0.13580322,-0.04882812
2.47953296,1175,3.10830878,-2.67751963,-2.70659645,-0.02250671,-1.59310245,-0.35667419,-3.10773816,3.66470430,-2.70750381,-0.00228882,-1.58471436,-2.41241455,-3.11727460,-2.61839183,-3.04152687,-0.00228882,-1.57975101,-2.41279602,0.00976562,0.00488281,0.41992188,-0.02929688,0.02929688,-0.01464844,-2.98118591,-0.13542175,-0.13542175,0.00000000
2.48978043,1180,3.10830878,-2.68209727,-2.68714150,-0.02250671,-1.59310245,-0.35667419,-3.10773795,3.66089329,-2.69063450,-0.00228882,-1.58471151,-2.41241455,-3.11689313,-2.61839183,-3.03656777,-0.00228882,-1.57975101,-2.41279602,0.01464844,0.00000000,0.43945312,-0.02929688,0.02929688,0.00000000,-2.98118591,-0.13542175,-0.13542175,0.00000000
2.50011492,1185,3.10830878,-2.68743785,-2.66692360,-0.02250671,-1.59310245,-0.35667419,-3.10773789,3.65612423,-2.67175478,-0.00228882,-1.58471057,-2.41241455,-3.11689313,-2.61839183,-3.03122719,-0.00228882,-1.57975101,-2.41279602,0.00976562,0.00000000,0.44433594,-0.01464844,0.01464844,-0.04394531,-2.98118591,-0.13542175,-0.13580322,-0.07324219
2.51032948,1190,3.10830878,-2.69125254,-2.65395363,-0.02250671,-1.59310245,-0.35667419,-3.10773787,3.65167650,-2.65490573,-0.00228882,-1.58471027,-2.41241455,-3.11651166,-2.61839183,-3.02779396,-0.00267029,-1.57975101,-2.41279602,0.00976562,-0.00488281,0.47851562,-0.02929688,0.02929688,-0.01464844,-2.98118591,-0.13524597,-0.13542175,0.00000000
2.52059436,1195,3.10830878,-2.69621165,-2.63373574,-0.02250671,-1.59310245,-0.35667419,-3.10773786,3.64720527,-2.63767357,-0.00228882,-1.58471016,-2.41241455,-3.11651166,-2.61839183,-3.02207192,-0.00267029,-1.57975101,-2.41279602,0.00488281,-0.00976562,0.49804688,-0.01464844,0.01464844,-0.01464844,-2.98118591,-0.13536415,-0.13580322,-0.02441406
2.53125715,1200,3.10830878,-2.70002635,-2.62038430,-0.02250671,-1.59310245,-0.35667419,-3.10773786,3.64285513,-2.62119991,-0.00228882,-1.58471013,-2.41241455,-3.11651166,-2.61839183,-3.01787575,-0.00267029,-1.57975101,-2.41279602,0.00488281,-0.00488281,0.49804688,-0.01464844,0.01464844,-0.02929688,-2.98118591,-0.13540288,-0.13580322,-0.02441406
2.54240513,1205,3.10830878,-2.70574839,-2.60054787,-0.02250671,-1.59310245,-0.35667419,-3.10773786,3.63777794,-2.60345038,-0.00228882,-1.58471012,-2.41241455,-3.11651166,-2.61839183,-3.01139077,-0.00267029,-1.57975101,-2.41279602,0.00976562,-0.00488281,0.51757812,-0.02929688,0.01464844,-0.01464844,-2.98118591,-0.13541557,-0.13580322,-0.02441406
2.55307198,1210,3.10830878,-2.71261485,-2.57880410,-0.02250671,-1.59310245,-0.35667419,-3.10773786,3.63205346,-2.58493979,-0.00228882,-1.58471012,-2.41241455,-3.11613019,-2.61839183,-3.00490578,-0.00228882,-1.57975101,-2.41279602,0.01464844,-0.00976562,0.53222656,0.00000000,0.01464844,-0.02929688,-2.98118591,-0.13541973,-0.13542175,0.00000000
2.56368732,1215,3.10830878,-2.71642955,-2.56583412,-0.02250671,-1.59310245,-0.35667419,-3.10773786,3.62686198,-2.56723864,-0.00228882,-1.58471012,-2.41241455,-3.11613019,-2.61839183,-3.00070961,-0.00267029,-1.57975101,-2.41279602,0.00976562,-0.00976562,0.54687500,-0.02929688,0.01464844,-0.01464844,-2.98118591,-0.13542109,-0.13542175,-0.04882812
2.57428002,1220,3.10830878,-2.72291453,-2.54485329,-0.02250671,-1.59310245,-0.35667419,-3.10773786,3.62155183,-2.54954973,-0.00228882,-1.58471012,-2.41241455,-3.11574872,-2.61839183,-2.99384316,-0.00267029,-1.57975101,-2.41279602,0.00976562,-0.01464844,0.56640625,-0.01464844,0.01464844,-0.02929688,-2.98118591,-0.13542154,-0.13580322,-0.02441406
2.58464599,1225,3.10830878,-2.72939952,-2.52539833,-0.02250671,-1.59310245,-0.35667419,-3.10773786,3.61527164,-2.53102771,-0.00228882,-1.58471012,-2.41241455,-3.11574872,-2.61877330,-2.98697670,-0.00267029,-1.57975101,-2.41279602,0.00488281,-0.02441406,0.58593750,-0.01464844,0.01464844,0.00000000,-2.98118591,-0.13542168,-0.13580322,-0.02441406
2.59492636,1230,3.10830878,-2.73397715,-2.51204689,-0.02250671,-1.59310245,-0.35667419,-3.10773786,3.60971570,-2.51350469,-0.00228882,-1.58471012,-2.41241455,-3.11574872,-2.61915477,-2.98201760,-0.00267029,-1.57975101,-2.41279602,0.00000000,-0.04882812,0.60546875,-0.01464844,0.01464844,0.00000000,-2.98118591,-0.13542173,-0.13580322,-0.04882812
2.60518837,1235,3.10830878,-2.74160655,-2.49068459,-0.02250671,-1.59310245,-0.35667419,-3.10773786,3.60343663,-2.49546670,-0.00228882,-1.58471012,-2.41241455,-3.11574872,-2.61991770,-2.97476967,-0.00267029,-1.57936954,-2.41279602,0.00000000,-0.06835938,0.61523438,-0.02929688,0.04394531,-0.01464844,-2.98118591,-0.13542175,-0.13580322,-0.02441406
2.61549640,1240,3.10830878,-2.74809153,-2.47771462,-0.02250671,-1.59310245,-0.35667419,-3.10773786,3.59724910,-2.47865064,-0.00228882,-1.58471012,-2.41241455,-3.11574872,-2.62029917,-2.96981057,-0.00228882,-1.57936954,-2.41279602,0.00000000,-0.07812500,0.63476562,-0.01464844,0.02929688,-0.02929688,-2.98118591,-0.13542175,-0.13542175,-0.02441406
2.62581635,1245,3.10830878,-2.75266917,-2.45787819,-0.02250671,-1.59310245,-0.35667419,-3.10773786,3.59124306,-2.46005288,-0.00228882,-1.58471012,-2.41241455,-3.11536725,-2.62106211,-2.96141823,-0.00228882,-1.57936954,-2.41279602,0.00488281,-0.07812500,0.67382812,-0.01464844,0.01464844,0.00000000,-2.98118591,-0.13542175,-0.13580322,-0.04882812
2.63643599,1250,3.10830878,-2.75991709,-2.43804177,-0.02250671,-1.59310245,-0.35667419,-3.10773786,3.58507297,-2.44214536,-0.00228882,-1.58471012,-2.41241455,-3.11536725,-2.62220652,-2.95607766,-0.00228882,-1.57936954,-2.41279602,0.00000000,-0.10253906,0.71777344,-0.01464844,0.01464844,-0.01464844,-2.98118591,-0.13542175,-0.13580322,-0.02441406
2.64689112,1255,3.10830878,-2.76449473,-2.42469033,-0.02250671,-1.59310245,-0.35667419,-3.10773786,3.57900965,-2.42564815,-0.00228882,-1.58471012,-2.41241455,-3.11536725,-2.62296946,-2.94768532,-0.00228882,-1.57936954,-2.41279602,0.00976562,-0.07812500,0.69335938,-0.01464844,0.01464844,-0.01464844,-2.98118591,-0.13542175,-0.13580322,-0.02441406
2.65714383,1260,3.10830878,-2.77136119,-2.40485390,-0.02250671,-1.59310245,-0.35667419,-3.10773786,3.57269934,-2.40703975,-0.00228882,-1.58471012,-2.41241455,-3.11498578,-2.62411387,-2.93967446,-0.00267029,-1.57936954,-2.41279602,0.00488281,-0.12207031,0.70312500,-0.01464844,0.02929688,-0.01464844,-2.98118591,-0.13542175,-0.13580322,-0.04882812
2.66757274,1265,3.10830878,-2.77822764,-2.38539894,-0.02250671,-1.59310245,-0.35667419,-3.10773786,3.56661571,-2.38931088,-0.00228882,-1.58471012,-2.41241455,-3.11498578,-2.62487681,-2.93433388,-0.00267029,-1.57898807,-2.41279602,0.00488281,-0.08300781,0.70312500,-0.01464844,0.02929688,-0.02929688,-2.98118591,-0.13542175,-0.13580322,-0.02441406
2.67781663,1270,3.10830878,-2.78280528,-2.37166603,-0.02250671,-1.59310245,-0.35667419,-3.10773786,3.56094400,-2.37280520,-0.00228882,-1.58471012,-2.41241455,-3.11498578,-2.62602122,-2.92594155,-0.00267029,-1.57898807,-2.41279602,0.00488281,-0.12695312,0.69335938,-0.02929688,0.02929688,-0.01464844,-2.98118591,-0.13542175,-0.13542175,0.00000000
2.68810511,1275,3.10830878,-2.79043467,-2.35106667,-0.02250671,-1.59310245,-0.35667419,-3.10773786,3.55462700,-2.35544129,-0.00228882,-1.58471012,-2.41241455,-3.11498578,-2.62716563,-2.91716774,-0.00267029,-1.57898807,-2.41279602,0.00000000,-0.12207031,0.73730469,-0.01464844,0.02929688,-0.02929688,-2.98118591,-0.13542175,-0.13580322,-0.04882812
2.69845748,1280,3.10830878,-2.79730113,-2.33046730,-0.02250671,-1.59310245,-0.35667419,-3.10773786,3.54820182,-2.33752673,-0.00228882,-1.58471012,-2.41241455,-3.11498578,-2.62831004,-2.91182717,-0.00267029,-1.57898807,-2.41279602,0.00000000,-0.13671875,0.73242188,-0.01464844,0.02929688,0.00000000,-2.98118591,-0.13542175,-0.13542175,0.00000000
2.70871878,1285,3.10830878,-2.80226023,-2.31749733,-0.02250671,-1.59310245,-0.35667419,-3.10773786,3.54194932,-2.31929158,-0.00228882,-1.58471012,-2.41241455,-3.11498578,-2.62983592,-2.90267189,-0.00267029,-1.57898807,-2.41279602,0.00000000,-0.15136719,0.77148438,-0.01464844,0.01464844,-0.02929688,-2.98118591,-0.13542175,-0.13580322,0.00000000
2.71901965,1290,3.10830878,-2.80950816,-2.29766091,-0.02250671,-1.59310245,-0.35667419,-3.10773786,3.53568920,-2.30174970,-0.00228882,-1.58471012,-2.41241455,-3.11460431,-2.63174327,-2.89389809,-0.00228882,-1.57898807,-2.41279602,0.00488281,-0.16601562,0.75683594,0.00000000,0.01464844,-0.02929688,-2.98118591,-0.13542175,-0.13580322,-0.04882812
2.72980642,1295,3.10830878,-2.81675608,-2.27782448,-0.02250671,-1.59310245,-0.35667419,-3.10773786,3.52909650,-2.28434263,-0.00228882,-1.58471012,-2.41241455,-3.11460431,-2.63288768,-2.88817604,-0.00267029,-1.57898807,-2.41279602,0.00488281,-0.17578125,0.77636719,-0.01464844,-0.00000000,0.00000000,-2.98118591,-0.13542175,-0.13580322,-0.02441406
2.73970723,1300,3.10830878,-2.82171519,-2.26447304,-0.02250671,-1.59310245,-0.35667419,-3.10773786,3.52252104,-2.26629533,-0.00228882,-1.58471012,-2.41241455,-3.11460431,-2.63517649,-2.87902077,-0.00228882,-1.57898807,-2.41279602,0.00976562,-0.18066406,0.79101562,-0.02929688,-0.00000000,-0.01464844,-2.98118591,-0.13542175,-0.13580322,-0.02441406
2.75036287,1305,3.10830878,-2.82896311,-2.24425515,-0.02250671,-1.59310245,-0.35667419,-3.10773786,3.51624298,-2.24865830,-0.00228882,-1.58471012,-2.41241455,-3.11422284,-2.63708384,-2.86948403,-0.00267029,-1.57898807,-2.41279602,0.00976562,-0.17089844,0.81542969,-0.02929688,-0.00000000,-0.01464844,-2.98118591,-0.13542175,-0.13580322,0.00000000
2.76070833,1310,3.10830878,-2.83392222,-2.23052224,-0.02250671,-1.59310245,-0.35667419,-3.10773786,3.51019006,-2.23182236,-0.00228882,-1.58471012,-2.41241455,-3.11422284,-2.63822825,-2.86261757,-0.00228882,-1.57898807,-2.41279602,0.00976562,-0.15136719,0.81054688,0.00000000,0.01464844,-0.01464844,-2.98118591,-0.13559753,-0.13542175,-0.02441406
2.77140403,1315,3.10830878,-2.84231456,-2.20915993,-0.02250671,-1.59310245,-0.35667419,-3.10773786,3.50347642,-2.21413485,-0.00228882,-1.58471012,-2.41241455,-3.11422284,-2.64051707,-2.85308083,-0.00228882,-1.57898807,-2.41279602,0.00976562,-0.19531250,0.81542969,-0.02929688,0.02929688,-0.01464844,-2.98118591,-0.13547935,-0.13542175,0.00000000
2.78348136,1320,3.10830878,-2.84727366,-2.19504555,-0.02250671,-1.59310245,-0.35667419,-3.10773786,3.49703027,-2.19668928,-0.00228882,-1.58471012,-2.41241455,-3.11422284,-2.64280589,-2.84392556,-0.00267029,-1.57898807,-2.41279602,0.00488281,-0.18066406,0.80078125,-0.02929688,-0.00000000,-0.02929688,-2.98118591,-0.13544063,-0.13580322,-0.04882812
2.79398751,1325,3.10830878,-2.85604747,-2.17139443,-0.02250671,-1.59310245,-0.35667419,-3.10773786,3.48946451,-2.17784424,-0.00228882,-1.58471012,-2.41241455,-3.11384137,-2.64471324,-2.83400734,-0.00267029,-1.57898807,-2.41279602,-0.00488281,-0.17578125,0.82031250,-0.02929688,0.01464844,-0.01464844,-2.98118591,-0.13542794,-0.13580322,-0.02441406
2.80444765,1330,3.10830878,-2.86138804,-2.15766152,-0.02250671,-1.59310245,-0.35667419,-3.10773786,3.48242018,-2.15923433,-0.00228882,-1.58471012,-2.41241455,-3.11384137,-2.64585765,-2.82752236,-0.00267029,-1.57898807,-2.41279602,0.00000000,-0.17578125,0.80078125,0.00000000,0.02929688,-0.02929688,-2.98118591,-0.13542378,-0.13542175,-0.02441406
2.81535888,1335,3.10830878,-2.86978038,-2.13706215,-0.02250671,-1.59310245,-0.35667419,-3.10773786,3.47506135,-2.14011219,-0.00228882,-1.58471012,-2.41241455,-3.11384137,-2.64852793,-2.81760414,-0.00267029,-1.57860660,-2.41279602,0.00000000,-0.21972656,0.82519531,-0.01464844,0.02929688,-0.02929688,-2.98118591,-0.13542242,-0.13542175,-0.02441406
2.82639480,1340,3.10830878,-2.87779124,-2.11684426,-0.02250671,-1.59310245,-0.35667419,-3.10773786,3.46793358,-2.12160732,-0.00228882,-1.58471012,-2.41241455,-3.11384137,-2.65081675,-2.80768593,-0.00267029,-1.57860660,-2.41279602,-0.00488281,-0.20507812,0.83007812,-0.01464844,0.02929688,-0.02929688,-2.98118591,-0.13542197,-0.13580322,-0.02441406
2.83699250,1345,3.10830878,-2.88580210,-2.09700783,-0.02250671,-1.59310245,-0.35667419,-3.10773786,3.46021209,-2.10238116,-0.00228882,-1.58471012,-2.41241455,-3.11384137,-2.65348704,-2.79776772,-0.00267029,-1.57860660,-2.41279602,-0.00488281,-0.22460938,0.83007812,0.00000000,0.02929688,-0.01464844,-2.98118591,-0.13542182,-0.13542175,-0.02441406
2.84774709,1350,3.10830878,-2.89152415,-2.08403786,-0.02250671,-1.59310245,-0.35667419,-3.10773786,3.45286270,-2.08457122,-0.00228882,-1.58471012,-2.41241455,-3.11384137,-2.65539439,-2.79051979,-0.00228882,-1.57860660,-2.41279602,0.00000000,-0.21972656,0.82031250,-0.01464844,0.01464844,-0.01464844,-2.98118591,-0.13542178,-0.13542175,0.00000000
2.85828590,1355,3.10830878,-2.89953501,-2.06458290,-0.02250671,-1.59310245,-0.35667419,-3.10773786,3.44534007,-2.06630989,-0.00228882,-1.58471012,-2.41241455,-3.11384137,-2.65692027,-2.78441628,-0.00228882,-1.57860660,-2.41279602,0.00000000,-0.21972656,0.80566406,0.00000000,0.02929688,-0.01464844,-2.98118591,-0.13542176,-0.13580322,-0.04882812
2.86951423,1360,3.10830878,-2.90792735,-2.04360207,-0.02250671,-1.59310245,-0.35667419,-3.10773786,3.43811358,-2.04840417,-0.00228882,-1.58471012,-2.41241455,-3.11345990,-2.65959056,-2.77487954,-0.00228882,-1.57860660,-2.41279602,0.00488281,-0.22949219,0.79589844,0.00000000,0.01464844,-0.02929688,-2.98118591,-0.13542176,-0.13542175,-0.02441406
2.87979984,1365,3.10830878,-2.91403086,-2.02948769,-0.02250671,-1.59310245,-0.35667419,-3.10773786,3.43091162,-2.03093190,-0.00228882,-1.58471012,-2.41241455,-3.11345990,-2.66226084,-2.76572426,-0.00228882,-1.57822513,-2.41279602,-0.00488281,-0.23925781,0.79101562,-0.01464844,0.02929688,-0.01464844,-2.98118591,-0.13542175,-0.13580322,-0.04882812
2.89020252,1370,3.10830878,-2.92204173,-2.01003273,-0.02250671,-1.59310245,-0.35667419,-3.10773786,3.42301542,-2.01279965,-0.00228882,-1.58471012,-2.41241455,-3.11345990,-2.66531260,-2.75618752,-0.00228882,-1.57822513,-2.41279602,0.00488281,-0.25878906,0.80078125,-0.01464844,0.02929688,-0.01464844,-2.98118591,-0.13542175,-0.13542175,-0.02441406
2.90048718,1375,3.10830878,-2.93005259,-1.99095925,-0.02250671,-1.59310245,-0.35667419,-3.10773786,3.41574282,-1.99489204,-0.00228882,-1.58471012,-2.41241455,-3.11345990,-2.66760142,-2.75008400,-0.00267029,-1.57822513,-2.41279602,0.00488281,-0.27343750,0.79101562,-0.01464844,0.02929688,0.00000000,-2.98118591,-0.13542175,-0.13580322,-0.04882812
2.91079879,1380,3.10830878,-2.93539317,-1.97837075,-0.02250671,-1.59310245,-0.35667419,-3.10773786,3.40906847,-1.97887221,-0.00220093,-1.58471012,-2.41241455,-3.11345990,-2.67103465,-2.74016579,-0.00267029,-1.57822513,-2.41279602,0.00976562,-0.27832031,0.81054688,-0.02929688,0.02929688,-0.01464844,-2.98118591,-0.13542175,-0.13542175,0.00000000
2.92113447,1385,3.10830878,-2.94340403,-1.95853432,-0.02250671,-1.59310245,-0.35667419,-3.10773786,3.40208638,-1.96197977,-0.00226002,-1.58471012,-2.41241455,-3.11307843,-2.67446788,-2.73368080,-0.00267029,-1.57822513,-2.41279602,0.00488281,-0.30761719,0.80566406,-0.02929688,0.01464844,-0.01464844,-2.98118591,-0.13542175,-0.13580322,-0.02441406
2.93163013,1390,3.10830878,-2.94874461,-1.94594582,-0.02250671,-1.59310245,-0.35667419,-3.10773786,3.39552920,-1.94611181,-0.00227938,-1.58471012,-2.41241455,-3.11307843,-2.67675669,-2.72452553,-0.00267029,-1.57822513,-2.41279602,0.00488281,-0.30273438,0.81054688,-0.01464844,0.01464844,-0.01464844,-2.98118591,-0.13542175,-0.13580322,-0.02441406
2.94215703,1395,3.10830878,-2.95637400,-1.92801674,-0.02250671,-1.59310245,-0.35667419,-3.10773786,3.38849333,-1.92946945,-0.00228573,-1.58471012,-2.41241455,-3.11307843,-2.68018992,-2.71498879,-0.00267029,-1.57822513,-2.41279602,0.00488281,-0.28320312,0.79101562,-0.02929688,-0.00000000,-0.01464844,-2.98118591,-0.13542175,-0.13542175,-0.04882812
2.95278358,1400,3.10792731,-2.96362193,-1.91046913,-0.02250671,-1.59310245,-0.35667419,-3.10792401,3.38161080,-1.91308517,-0.00228781,-1.58471012,-2.41241455,-3.11307843,-2.68247874,-2.70888527,-0.00267029,-1.57822513,-2.41279602,0.00488281,-0.32714844,0.81054688,0.00000000,0.01464844,-0.01464844,-2.98118591,-0.13542175,-0.13580322,-0.04882812
2.96307874,1405,3.10792731,-2.96858103,-1.89864357,-0.02250671,-1.59310245,-0.35667419,-3.10805532,3.37545208,-1.89831317,-0.00228849,-1.58471012,-2.41241455,-3.11307843,-2.68629344,-2.69896706,-0.00267029,-1.57822513,-2.41279602,0.00000000,-0.28320312,0.79101562,-0.01464844,-0.00000000,-0.01464844,-2.98118591,-0.13542175,-0.13542175,0.00000000
2.97387695,1410,3.10792731,-2.97544749,-1.88147744,-0.02250671,-1.59310245,-0.35667419,-3.10809835,3.36875504,-1.88178116,-0.00228871,-1.58471012,-2.41241455,-3.11307843,-2.68896373,-2.69133766,-0.00267029,-1.57822513,-2.41279602,0.00000000,-0.30273438,0.81054688,-0.01464844,0.01464844,-0.02929688,-2.98118591,-0.13542175,-0.13580322,-0.02441406
2.98468924,1415,3.10792731,-2.98231394,-1.86469277,-0.02212524,-1.59310245,-0.35667419,-3.10811245,3.36257594,-1.86654168,-0.00221249,-1.58471012,-2.41241455,-3.11307843,-2.69201548,-2.68218239,-0.00267029,-1.57822513,-2.41279602,0.00000000,-0.28808594,0.80078125,-0.01464844,0.01464844,-0.02929688,-2.98118591,-0.13542175,-0.13580322,-0.02441406
2.99562883,1420,3.10792731,-2.98689158,-1.85439308,-0.02250671,-1.59310245,-0.35667419,-3.10811707,3.35687294,-1.85301053,-0.00223256,-1.58471012,-2.41241455,-3.11269696,-2.69544871,-2.67264565,-0.00267029,-1.57822513,-2.41279602,0.00488281,-0.28808594,0.80566406,-0.01464844,0.02929688,-0.01464844,-2.98118591,-0.13542175,-0.13580322,-0.02441406
3.00577879,1425,3.10792731,-2.99413951,-1.83684548,-0.02250671,-1.59310245,-0.35667419,-3.10811859,3.35069230,-1.83931078,-0.00227038,-1.58471012,-2.41241455,-3.11269696,-2.69888194,-2.66349037,-0.00267029,-1.57822513,-2.41279602,0.00000000,-0.29296875,0.80566406,0.00000000,0.01464844,-0.01464844,-2.98118591,-0.13542175,-0.13580322,-0.04882812
3.01748681,1430,3.10792731,-3.00024302,-1.82158669,-0.02250671,-1.59310245,-0.35667419,-3.10811908,3.34487210,-1.82443444,-0.00228278,-1.58471012,-2.41241455,-3.11269696,-2.70231517,-2.65395363,-0.00228882,-1.57822513,-2.41279602,0.00000000,-0.29785156,0.82031250,0.00000000,0.01464844,-0.02929688,-2.98118591,-0.13542175,-0.13580322,-0.02441406
3.02884769,1435,3.10792731,-3.00482066,-1.81090554,-0.02250671,-1.59310245,-0.35667419,-3.10811925,3.33892978,-1.81045575,-0.00228684,-1.58471012,-2.41241455,-3.11269696,-2.70460398,-2.64746865,-0.00267029,-1.57822513,-2.41279602,0.00000000,-0.29296875,0.82031250,-0.02929688,-0.00000000,-0.02929688,-2.98118591,-0.13542175,-0.13580322,-0.02441406
